; HEADER_BLOCK_START
; generated by OrcaSlicer 2.3.1 on 2026-02-11 at 11:06:59
; total layer number: 73
; filament_density: 1.24
; filament_diameter: 1.75
; max_z_height: 15.00
; HEADER_BLOCK_END

; external perimeters extrusion width = 0.40mm
; perimeters extrusion width = 0.40mm
; infill extrusion width = 0.40mm
; solid infill extrusion width = 0.40mm
; top infill extrusion width = 0.40mm
; first layer extrusion width = 0.40mm

; EXECUTABLE_BLOCK_START
M73 P0 R12
M201 X500 Y500 Z100 E5000
M203 X500 Y500 Z10 E60
M204 P500 R1000 T500
M205 X8.00 Y8.00 Z0.40 E5.00 ; sets the jerk limits, mm/sec
;TYPE:Custom
G90 ; use absolute coordinates
M83 ; extruder relative mode
M140 S55 ; set final bed temp
M104 S150 ; set temporary nozzle temp to prevent oozing during homing
G4 S10 ; allow partial nozzle warmup
G28 ; home all axis
G1 Z50 F240
G1 X2 Y10 F3000
M73 P1 R12
M104 S220 ; set final nozzle temp
M190 S55 ; wait for bed temp to stabilize
M109 S220 ; wait for nozzle temp to stabilize
G1 Z0.28 F240
G92 E0
G1 Y140 E10 F1500 ; prime the nozzle
M73 P3 R12
G1 X2.3 F5000
M73 P4 R12
G92 E0
G1 Y10 E10 F1200 ; prime the nozzle
G92 E0
G90
G21
M83 ; use relative distances for extrusion
; Filament gcode
M106 S0
;LAYER_CHANGE
;Z:0.2
;HEIGHT:0.2
;BEFORE_LAYER_CHANGE
;0.2
G92 E0

G1 E-4 F3600
M73 P4 R11
;_SET_FAN_SPEED_CHANGING_LAYER
M204 S500
; printing object CLIP_WEGA.stl id:15 copy 0
G1 Z.6 F30000
G1 X114.25 Y106.95
G1 Z.6
M73 P5 R11
G1 Z.2
G1 E4 F2400
;TYPE:Inner wall
;WIDTH:0.4
G1 F3000
G1 X85.75 Y106.95 E.82928
G1 X85.75 Y93.95 E.37827
G1 X114.25 Y93.95 E.82928
G1 X114.25 Y106.91 E.3771
G1 X114.65 Y107.35 F30000
;TYPE:Outer wall
G1 F3000
G1 X85.35 Y107.35 E.85256
G1 X85.35 Y93.55 E.40155
G1 X114.65 Y93.55 E.85256
G1 X114.65 Y107.31 E.40038
G1 E-2.8 F3600
;WIPE_START
G1 F3000
G1 X113.65 Y107.311 E-1.2
;WIPE_END
G1 Z.6 F30000
G1 X114.143 Y94.783 Z.6
G1 Z.2
G1 E4 F2400
;TYPE:Bottom surface
;WIDTH:0.402085
G1 F6300
G1 X113.577 Y94.218 E.02341
G1 X113.069 Y94.218 E.01487
G1 X113.982 Y95.131 E.03778
G1 X113.982 Y95.639 E.01487
G1 X112.561 Y94.218 E.05881
G1 X112.053 Y94.218 E.01487
G1 X113.982 Y96.147 E.07983
G1 X113.982 Y96.654 E.01487
G1 X111.546 Y94.218 E.10085
G1 X111.038 Y94.218 E.01487
G1 X113.982 Y97.162 E.12188
G1 X113.982 Y97.67 E.01487
G1 X110.53 Y94.218 E.1429
G1 X110.022 Y94.218 E.01487
G1 X113.982 Y98.178 E.16392
G1 X113.982 Y98.686 E.01487
G1 X109.514 Y94.218 E.18495
G1 X109.006 Y94.218 E.01487
G1 X113.982 Y99.194 E.20597
G1 X113.982 Y99.702 E.01487
G1 X108.498 Y94.218 E.227
G1 X107.99 Y94.218 E.01487
G1 X113.982 Y100.21 E.24802
G1 X113.982 Y100.718 E.01487
M73 P6 R11
G1 X107.482 Y94.218 E.26904
G1 X106.974 Y94.218 E.01487
G1 X113.982 Y101.226 E.29007
G1 X113.982 Y101.734 E.01487
G1 X106.466 Y94.218 E.31109
G1 X105.958 Y94.218 E.01487
G1 X113.982 Y102.242 E.33211
G1 X113.982 Y102.75 E.01487
G1 X105.45 Y94.218 E.35314
G1 X104.942 Y94.218 E.01487
G1 X113.982 Y103.258 E.37416
G1 X113.982 Y103.766 E.01487
G1 X104.434 Y94.218 E.39518
G1 X103.927 Y94.218 E.01487
G1 X113.982 Y104.273 E.41621
G1 X113.982 Y104.781 E.01487
G1 X103.419 Y94.218 E.43723
G1 X102.911 Y94.218 E.01487
G1 X113.982 Y105.289 E.45826
G1 X113.982 Y105.797 E.01487
G1 X102.403 Y94.218 E.47928
G1 X101.895 Y94.218 E.01487
G1 X113.982 Y106.305 E.5003
G1 X113.982 Y106.682 E.01103
G1 X113.851 Y106.682 E.00383
G1 X101.387 Y94.218 E.51591
G1 X100.879 Y94.218 E.01487
G1 X113.343 Y106.682 E.51591
G1 X112.835 Y106.682 E.01487
G1 X100.371 Y94.218 E.51591
G1 X99.863 Y94.218 E.01487
G1 X112.327 Y106.682 E.51591
G1 X111.819 Y106.682 E.01487
G1 X99.355 Y94.218 E.51591
G1 X98.847 Y94.218 E.01487
G1 X111.312 Y106.682 E.51591
G1 X110.804 Y106.682 E.01487
G1 X98.339 Y94.218 E.51591
G1 X97.831 Y94.218 E.01487
G1 X110.296 Y106.682 E.51591
G1 X109.788 Y106.682 E.01487
G1 X97.323 Y94.218 E.51591
G1 X96.815 Y94.218 E.01487
G1 X109.28 Y106.682 E.51591
G1 X108.772 Y106.682 E.01487
M73 P7 R11
G1 X96.307 Y94.218 E.51591
G1 X95.8 Y94.218 E.01487
G1 X108.264 Y106.682 E.51591
G1 X107.756 Y106.682 E.01487
G1 X95.292 Y94.218 E.51591
G1 X94.784 Y94.218 E.01487
G1 X107.248 Y106.682 E.51591
G1 X106.74 Y106.682 E.01487
G1 X94.276 Y94.218 E.51591
G1 X93.768 Y94.218 E.01487
G1 X106.232 Y106.682 E.51591
G1 X105.724 Y106.682 E.01487
G1 X93.26 Y94.218 E.51591
G1 X92.752 Y94.218 E.01487
G1 X105.216 Y106.682 E.51591
G1 X104.708 Y106.682 E.01487
G1 X92.244 Y94.218 E.51591
G1 X91.736 Y94.218 E.01487
G1 X104.2 Y106.682 E.51591
G1 X103.692 Y106.682 E.01487
G1 X91.228 Y94.218 E.51591
G1 X90.72 Y94.218 E.01487
G1 X103.185 Y106.682 E.51591
G1 X102.677 Y106.682 E.01487
G1 X90.212 Y94.218 E.51591
G1 X89.704 Y94.218 E.01487
G1 X102.169 Y106.682 E.51591
G1 X101.661 Y106.682 E.01487
G1 X89.196 Y94.218 E.51591
G1 X88.688 Y94.218 E.01487
G1 X101.153 Y106.682 E.51591
G1 X100.645 Y106.682 E.01487
G1 X88.18 Y94.218 E.51591
G1 X87.673 Y94.218 E.01487
G1 X100.137 Y106.682 E.51591
G1 X99.629 Y106.682 E.01487
G1 X87.165 Y94.218 E.51591
G1 X86.657 Y94.218 E.01487
G1 X99.121 Y106.682 E.51591
G1 X98.613 Y106.682 E.01487
M73 P8 R11
G1 X86.149 Y94.218 E.51591
G1 X86.018 Y94.218 E.00383
G1 X86.018 Y94.595 E.01103
G1 X98.105 Y106.682 E.5003
G1 X97.597 Y106.682 E.01487
G1 X86.018 Y95.103 E.47928
G1 X86.018 Y95.611 E.01487
G1 X97.089 Y106.682 E.45825
G1 X96.581 Y106.682 E.01487
G1 X86.018 Y96.119 E.43723
G1 X86.018 Y96.627 E.01487
G1 X96.073 Y106.682 E.41621
G1 X95.566 Y106.682 E.01487
G1 X86.018 Y97.134 E.39518
G1 X86.018 Y97.642 E.01487
G1 X95.058 Y106.682 E.37416
G1 X94.55 Y106.682 E.01487
G1 X86.018 Y98.15 E.35314
G1 X86.018 Y98.658 E.01487
G1 X94.042 Y106.682 E.33211
G1 X93.534 Y106.682 E.01487
G1 X86.018 Y99.166 E.31109
G1 X86.018 Y99.674 E.01487
G1 X93.026 Y106.682 E.29006
G1 X92.518 Y106.682 E.01487
G1 X86.018 Y100.182 E.26904
G1 X86.018 Y100.69 E.01487
G1 X92.01 Y106.682 E.24802
G1 X91.502 Y106.682 E.01487
G1 X86.018 Y101.198 E.22699
G1 X86.018 Y101.706 E.01487
G1 X90.994 Y106.682 E.20597
G1 X90.486 Y106.682 E.01487
G1 X86.018 Y102.214 E.18495
G1 X86.018 Y102.722 E.01487
G1 X89.978 Y106.682 E.16392
G1 X89.47 Y106.682 E.01487
G1 X86.018 Y103.23 E.1429
G1 X86.018 Y103.738 E.01487
G1 X88.962 Y106.682 E.12188
G1 X88.454 Y106.682 E.01487
G1 X86.018 Y104.246 E.10085
G1 X86.018 Y104.754 E.01487
G1 X87.946 Y106.682 E.07983
G1 X87.439 Y106.682 E.01487
G1 X86.018 Y105.261 E.0588
G1 X86.018 Y105.769 E.01487
G1 X86.931 Y106.682 E.03778
G1 X86.423 Y106.682 E.01487
G1 X85.857 Y106.117 E.02341
; stop printing object CLIP_WEGA.stl id:15 copy 0
M106 S255
;LAYER_CHANGE
;Z:0.4
;HEIGHT:0.2
;BEFORE_LAYER_CHANGE
;0.4
G92 E0

G1 E-3.42857 F3600
;WIPE_START
G1 F6300
G1 X86.423 Y106.682 E-.45703
G1 X86.623 Y106.682 E-.1144
;WIPE_END
;_SET_FAN_SPEED_CHANGING_LAYER
; printing object CLIP_WEGA.stl id:15 copy 0
M204 S10000
G1 Z.8 F30000
G1 X114.4 Y107.1 Z.8
G1 Z.4
G1 E4 F2400
M204 S500
;TYPE:Inner wall
;WIDTH:0.4
G1 F10287.535
M73 P9 R11
G1 X85.6 Y107.1 E.83801
G1 X85.6 Y93.8 E.387
G1 X114.4 Y93.8 E.83801
G1 X114.4 Y107.06 E.38583
M204 S10000
G1 X114.8 Y107.5 F30000
M204 S500
;TYPE:Outer wall
G1 F10287.535
G1 X85.2 Y107.5 E.86129
G1 X85.2 Y93.4 E.41027
G1 X114.8 Y93.4 E.86129
G1 X114.8 Y107.46 E.40911
G1 E-3.65006 F3600
;WIPE_START
G1 F10287.535
G1 X113.8 Y107.461 E-.34994
;WIPE_END
M204 S10000
G1 Z.8 F30000
G1 X112.801 Y106.743 Z.8
G1 Z.4
G1 E4 F2400
M204 S500
;TYPE:Internal solid infill
;WIDTH:0.399999
G1 F10287.553
G1 X114.043 Y106.743 E.03614
G1 X114.043 Y105.501 E.03614
G1 X112.829 Y106.715 E.04994
M204 S10000
G1 X113.702 Y106.339 F30000
M204 S500
;WIDTH:0.413384
G1 F9915.86
G1 X113.633 Y106.379 E.00242
G1 X113.705 Y106.414 E.00243
M204 S10000
G1 X114.257 Y104.831 F30000
M204 S500
;WIDTH:0.400926
G1 F10260.915
G1 X112.292 Y106.796 E.08107
G1 X111.786 Y106.796 E.01477
G1 X114.096 Y104.486 E.09533
G1 X114.096 Y103.98 E.01477
G1 X111.28 Y106.796 E.11622
G1 X110.773 Y106.796 E.01477
G1 X114.096 Y103.473 E.1371
G1 X114.096 Y102.967 E.01477
G1 X110.267 Y106.796 E.15799
G1 X109.761 Y106.796 E.01477
G1 X114.096 Y102.461 E.17888
G1 X114.096 Y101.954 E.01477
G1 X109.254 Y106.796 E.19977
G1 X108.748 Y106.796 E.01477
G1 X114.096 Y101.448 E.22066
G1 X114.096 Y100.942 E.01477
G1 X108.242 Y106.796 E.24155
G1 X107.735 Y106.796 E.01477
G1 X114.096 Y100.435 E.26243
G1 X114.096 Y99.929 E.01477
G1 X107.229 Y106.796 E.28332
G1 X106.723 Y106.796 E.01477
G1 X114.096 Y99.423 E.30421
G1 X114.096 Y98.917 E.01477
G1 X106.217 Y106.796 E.3251
G1 X105.71 Y106.796 E.01477
G1 X114.096 Y98.41 E.34599
G1 X114.096 Y97.904 E.01477
G1 X105.204 Y106.796 E.36687
G1 X104.698 Y106.796 E.01477
M73 P10 R11
G1 X114.096 Y97.398 E.38776
G1 X114.096 Y96.891 E.01477
G1 X104.191 Y106.796 E.40865
G1 X103.685 Y106.796 E.01477
G1 X114.096 Y96.385 E.42954
G1 X114.096 Y95.879 E.01477
G1 X103.179 Y106.796 E.45043
G1 X102.673 Y106.796 E.01477
G1 X114.096 Y95.373 E.47132
G1 X114.096 Y94.866 E.01477
G1 X102.166 Y106.796 E.4922
G1 X101.66 Y106.796 E.01477
G1 X114.096 Y94.36 E.51309
G1 X114.096 Y94.104 E.00748
G1 X113.847 Y94.104 E.00729
G1 X101.154 Y106.796 E.52367
G1 X100.647 Y106.796 E.01477
G1 X113.34 Y94.104 E.52367
G1 X112.834 Y94.104 E.01477
G1 X100.141 Y106.796 E.52367
G1 X99.635 Y106.796 E.01477
G1 X112.328 Y94.104 E.52367
G1 X111.821 Y94.104 E.01477
G1 X99.128 Y106.796 E.52367
G1 X98.622 Y106.796 E.01477
G1 X111.315 Y94.104 E.52367
G1 X110.809 Y94.104 E.01477
G1 X98.116 Y106.796 E.52367
G1 X97.61 Y106.796 E.01477
G1 X110.303 Y94.104 E.52367
G1 X109.796 Y94.104 E.01477
G1 X97.103 Y106.796 E.52367
G1 X96.597 Y106.796 E.01477
G1 X109.29 Y94.104 E.52367
G1 X108.784 Y94.104 E.01477
G1 X96.091 Y106.796 E.52367
G1 X95.584 Y106.796 E.01477
G1 X108.277 Y94.104 E.52367
G1 X107.771 Y94.104 E.01477
G1 X95.078 Y106.796 E.52367
G1 X94.572 Y106.796 E.01477
G1 X107.265 Y94.104 E.52367
G1 X106.758 Y94.104 E.01477
M73 P11 R11
G1 X94.065 Y106.796 E.52367
G1 X93.559 Y106.796 E.01477
G1 X106.252 Y94.104 E.52367
G1 X105.746 Y94.104 E.01477
G1 X93.053 Y106.796 E.52367
G1 X92.547 Y106.796 E.01477
G1 X105.24 Y94.104 E.52367
G1 X104.733 Y94.104 E.01477
G1 X92.04 Y106.796 E.52367
G1 X91.534 Y106.796 E.01477
G1 X104.227 Y94.104 E.52367
G1 X103.721 Y94.104 E.01477
G1 X91.028 Y106.796 E.52367
G1 X90.521 Y106.796 E.01477
G1 X103.214 Y94.104 E.52367
G1 X102.708 Y94.104 E.01477
G1 X90.015 Y106.796 E.52367
G1 X89.509 Y106.796 E.01477
G1 X102.202 Y94.104 E.52367
G1 X101.695 Y94.104 E.01477
G1 X89.003 Y106.796 E.52367
G1 X88.496 Y106.796 E.01477
G1 X101.189 Y94.104 E.52367
G1 X100.683 Y94.104 E.01477
G1 X87.99 Y106.796 E.52367
G1 X87.484 Y106.796 E.01477
G1 X100.177 Y94.104 E.52367
G1 X99.67 Y94.104 E.01477
G1 X86.977 Y106.796 E.52367
G1 X86.471 Y106.796 E.01477
G1 X99.164 Y94.104 E.52367
G1 X98.658 Y94.104 E.01477
G1 X85.965 Y106.796 E.52367
G1 X85.904 Y106.796 E.00179
G1 X85.904 Y106.351 E.01298
G1 X98.151 Y94.104 E.50531
G1 X97.645 Y94.104 E.01477
G1 X85.904 Y105.845 E.48442
G1 X85.904 Y105.339 E.01477
G1 X97.139 Y94.104 E.46353
G1 X96.633 Y94.104 E.01477
M73 P12 R11
G1 X85.904 Y104.833 E.44264
G1 X85.904 Y104.326 E.01477
G1 X96.126 Y94.104 E.42176
G1 X95.62 Y94.104 E.01477
G1 X85.904 Y103.82 E.40087
G1 X85.904 Y103.314 E.01477
G1 X95.114 Y94.104 E.37998
G1 X94.607 Y94.104 E.01477
G1 X85.904 Y102.807 E.35909
G1 X85.904 Y102.301 E.01477
G1 X94.101 Y94.104 E.3382
G1 X93.595 Y94.104 E.01477
G1 X85.904 Y101.795 E.31731
G1 X85.904 Y101.288 E.01477
G1 X93.088 Y94.104 E.29643
G1 X92.582 Y94.104 E.01477
G1 X85.904 Y100.782 E.27554
G1 X85.904 Y100.276 E.01477
G1 X92.076 Y94.104 E.25465
G1 X91.57 Y94.104 E.01477
G1 X85.904 Y99.77 E.23376
G1 X85.904 Y99.263 E.01477
G1 X91.063 Y94.104 E.21287
G1 X90.557 Y94.104 E.01477
G1 X85.904 Y98.757 E.19199
G1 X85.904 Y98.251 E.01477
G1 X90.051 Y94.104 E.1711
G1 X89.544 Y94.104 E.01477
G1 X85.904 Y97.744 E.15021
G1 X85.904 Y97.238 E.01477
G1 X89.038 Y94.104 E.12932
G1 X88.532 Y94.104 E.01477
G1 X85.904 Y96.732 E.10843
G1 X85.904 Y96.225 E.01477
G1 X88.025 Y94.104 E.08754
G1 X87.519 Y94.104 E.01477
G1 X85.904 Y95.719 E.06666
G1 X85.904 Y95.213 E.01477
G1 X87.013 Y94.104 E.04577
G1 X86.507 Y94.104 E.01477
G1 X85.743 Y94.867 E.03151
M73 P12 R10
M204 S10000
G1 X85.993 Y94.128 F30000
M204 S500
;WIDTH:0.423892
G1 F9642.36
G1 X85.921 Y94.169 E.00256
G1 X85.997 Y94.204 E.00257
; stop printing object CLIP_WEGA.stl id:15 copy 0
;LAYER_CHANGE
;Z:0.6
;HEIGHT:0.2
;BEFORE_LAYER_CHANGE
;0.6
G92 E0

G1 E-3.93828 F3600
;WIPE_START
G1 F9642.36
G1 X85.921 Y94.169 E-.03093
G1 X85.993 Y94.128 E-.03079
;WIPE_END
;_SET_FAN_SPEED_CHANGING_LAYER
; printing object CLIP_WEGA.stl id:15 copy 0
M204 S10000
G1 Z1 F30000
G1 X114.4 Y107.1 Z1
G1 Z.6
G1 E4 F2400
M204 S500
;TYPE:Inner wall
;WIDTH:0.4
G1 F10287.535
G1 X85.6 Y107.1 E.83801
G1 X85.6 Y93.8 E.387
G1 X114.4 Y93.8 E.83801
G1 X114.4 Y107.06 E.38583
M73 P13 R10
M204 S10000
G1 X114.8 Y107.5 F30000
M204 S500
;TYPE:Outer wall
G1 F10287.535
G1 X85.2 Y107.5 E.86129
G1 X85.2 Y93.4 E.41027
G1 X114.8 Y93.4 E.86129
G1 X114.8 Y107.46 E.40911
G1 E-3.65006 F3600
;WIPE_START
G1 F10287.535
G1 X113.8 Y107.461 E-.34994
;WIPE_END
M204 S10000
G1 Z1 F30000
G1 X114.257 Y96.069 Z1
G1 Z.6
G1 E4 F2400
M204 S500
;TYPE:Internal solid infill
;WIDTH:0.400926
G1 F10260.915
G1 X112.292 Y94.104 E.08107
G1 X111.786 Y94.104 E.01477
G1 X114.096 Y96.414 E.09533
G1 X114.096 Y96.92 E.01477
G1 X111.28 Y94.104 E.11622
G1 X110.773 Y94.104 E.01477
G1 X114.096 Y97.427 E.1371
G1 X114.096 Y97.933 E.01477
G1 X110.267 Y94.104 E.15799
G1 X109.761 Y94.104 E.01477
G1 X114.096 Y98.439 E.17888
G1 X114.096 Y98.946 E.01477
G1 X109.254 Y94.104 E.19977
G1 X108.748 Y94.104 E.01477
G1 X114.096 Y99.452 E.22066
G1 X114.096 Y99.958 E.01477
G1 X108.242 Y94.104 E.24155
G1 X107.735 Y94.104 E.01477
G1 X114.096 Y100.465 E.26243
G1 X114.096 Y100.971 E.01477
G1 X107.229 Y94.104 E.28332
G1 X106.723 Y94.104 E.01477
G1 X114.096 Y101.477 E.30421
G1 X114.096 Y101.983 E.01477
G1 X106.217 Y94.104 E.3251
G1 X105.71 Y94.104 E.01477
G1 X114.096 Y102.49 E.34599
G1 X114.096 Y102.996 E.01477
G1 X105.204 Y94.104 E.36688
G1 X104.698 Y94.104 E.01477
G1 X114.096 Y103.502 E.38776
G1 X114.096 Y104.009 E.01477
G1 X104.191 Y94.104 E.40865
G1 X103.685 Y94.104 E.01477
G1 X114.096 Y104.515 E.42954
G1 X114.096 Y105.021 E.01477
G1 X103.179 Y94.104 E.45043
G1 X102.673 Y94.104 E.01477
M73 P14 R10
G1 X114.096 Y105.527 E.47132
G1 X114.096 Y106.034 E.01477
G1 X102.166 Y94.104 E.4922
G1 X101.66 Y94.104 E.01477
G1 X114.096 Y106.54 E.51309
G1 X114.096 Y106.796 E.00748
G1 X113.847 Y106.796 E.00729
G1 X101.154 Y94.104 E.52367
G1 X100.647 Y94.104 E.01477
G1 X113.34 Y106.796 E.52367
G1 X112.834 Y106.796 E.01477
G1 X100.141 Y94.104 E.52367
G1 X99.635 Y94.104 E.01477
G1 X112.328 Y106.796 E.52367
G1 X111.821 Y106.796 E.01477
G1 X99.128 Y94.104 E.52367
G1 X98.622 Y94.104 E.01477
G1 X111.315 Y106.796 E.52367
G1 X110.809 Y106.796 E.01477
G1 X98.116 Y94.104 E.52367
G1 X97.61 Y94.104 E.01477
G1 X110.303 Y106.796 E.52367
G1 X109.796 Y106.796 E.01477
G1 X97.103 Y94.104 E.52367
G1 X96.597 Y94.104 E.01477
G1 X109.29 Y106.796 E.52367
G1 X108.784 Y106.796 E.01477
G1 X96.091 Y94.104 E.52367
G1 X95.584 Y94.104 E.01477
G1 X108.277 Y106.796 E.52367
G1 X107.771 Y106.796 E.01477
G1 X95.078 Y94.104 E.52367
G1 X94.572 Y94.104 E.01477
G1 X107.265 Y106.796 E.52367
G1 X106.758 Y106.796 E.01477
G1 X94.065 Y94.104 E.52367
G1 X93.559 Y94.104 E.01477
G1 X106.252 Y106.796 E.52367
G1 X105.746 Y106.796 E.01477
G1 X93.053 Y94.104 E.52367
G1 X92.547 Y94.104 E.01477
M73 P15 R10
G1 X105.24 Y106.796 E.52367
G1 X104.733 Y106.796 E.01477
G1 X92.04 Y94.104 E.52367
G1 X91.534 Y94.104 E.01477
G1 X104.227 Y106.796 E.52367
G1 X103.721 Y106.796 E.01477
G1 X91.028 Y94.104 E.52367
G1 X90.521 Y94.104 E.01477
G1 X103.214 Y106.796 E.52367
G1 X102.708 Y106.796 E.01477
G1 X90.015 Y94.104 E.52367
G1 X89.509 Y94.104 E.01477
G1 X102.202 Y106.796 E.52367
G1 X101.695 Y106.796 E.01477
G1 X89.003 Y94.104 E.52367
G1 X88.496 Y94.104 E.01477
G1 X101.189 Y106.796 E.52367
G1 X100.683 Y106.796 E.01477
G1 X87.99 Y94.104 E.52367
G1 X87.484 Y94.104 E.01477
G1 X100.177 Y106.796 E.52367
G1 X99.67 Y106.796 E.01477
G1 X86.977 Y94.104 E.52367
G1 X86.471 Y94.104 E.01477
G1 X99.164 Y106.796 E.52367
G1 X98.658 Y106.796 E.01477
