; HEADER_BLOCK_START
; generated by OrcaSlicer 2.3.1 on 2026-02-06 at 18:19:36
; total layer number: 165
; filament_density: 1.27
; filament_diameter: 1.75
; max_z_height: 33.00
; HEADER_BLOCK_END

; external perimeters extrusion width = 0.40mm
; perimeters extrusion width = 0.40mm
; infill extrusion width = 0.40mm
; solid infill extrusion width = 0.40mm
; top infill extrusion width = 0.40mm
; first layer extrusion width = 0.40mm

; EXECUTABLE_BLOCK_START
M73 P0 R90
M201 X500 Y500 Z100 E5000
M203 X500 Y500 Z10 E60
M204 P500 R1000 T500
M205 X8.00 Y8.00 Z0.40 E5.00 ; sets the jerk limits, mm/sec
;TYPE:Custom
G90 ; use absolute coordinates
M83 ; extruder relative mode
M140 S55 ; set final bed temp
M104 S150 ; set temporary nozzle temp to prevent oozing during homing
G4 S10 ; allow partial nozzle warmup
G28 ; home all axis
G1 Z50 F240
G1 X2 Y10 F3000
M104 S220 ; set final nozzle temp
M190 S55 ; wait for bed temp to stabilize
M109 S220 ; wait for nozzle temp to stabilize
G1 Z0.28 F240
G92 E0
G1 Y140 E10 F1500 ; prime the nozzle
G1 X2.3 F5000
G92 E0
G1 Y10 E10 F1200 ; prime the nozzle
G92 E0
G90
G21
M83 ; use relative distances for extrusion
; Filament gcode
M106 S0
;LAYER_CHANGE
;Z:0.2
;HEIGHT:0.2
;BEFORE_LAYER_CHANGE
;0.2
G92 E0

G1 E-4 F3600
;_SET_FAN_SPEED_CHANGING_LAYER
M204 S500
; printing object FLANGE_70mm.stl id:15 copy 0
G1 Z.6 F30000
G1 X73.268 Y73.307
G1 Z.6
G1 Z.2
G1 E4 F2400
;TYPE:Brim
;WIDTH:0.4
G1 F3000
G1 X73.644 Y72.931 E.01548
G1 X74.453 Y72.261 E.03057
G1 X75.277 Y71.701 E.02897
G1 X76.226 Y71.18 E.03151
G1 X76.832 Y70.908 E.01934
G1 X77.473 Y70.666 E.01992
G1 X78.429 Y70.388 E.02897
G1 X79.473 Y70.188 E.03094
G1 X80.465 Y70.094 E.029
G1 X80.999 Y70.079 E.01555
G1 X169.009 Y70.08 E2.56086
G1 X169.833 Y70.113 E.024
G1 X170.889 Y70.246 E.03096
G1 X171.859 Y70.462 E.02893
G1 X172.87 Y70.79 E.03094
G1 X173.794 Y71.19 E.0293
G1 X174.715 Y71.696 E.03056
G1 X175.548 Y72.262 E.0293
G1 X176.357 Y72.932 E.03056
G1 X177.061 Y73.634 E.02893
G1 X177.739 Y74.453 E.03094
G1 X178.298 Y75.275 E.02893
G1 X178.806 Y76.198 E.03065
G1 X179.206 Y77.119 E.02922
G1 X179.535 Y78.13 E.03093
G1 X179.752 Y79.1 E.02893
G1 X179.886 Y80.156 E.03096
G1 X179.921 Y81 E.0246
G1 X179.918 Y169.151 E2.56495
G1 X179.852 Y170.21 E.03087
M73 P0 R89
G1 X179.697 Y171.192 E.02893
G1 X179.433 Y172.222 E.03094
G1 X179.097 Y173.157 E.02893
G1 X178.644 Y174.12 E.03094
G1 X178.138 Y174.977 E.02897
G1 X177.746 Y175.537 E.01988
G1 X177.068 Y176.357 E.03097
G1 X176.356 Y177.069 E.0293
G1 X175.546 Y177.739 E.0306
G1 X174.985 Y178.133 E.01992
G1 X174.401 Y178.49 E.01992
G1 X173.513 Y178.943 E.02902
G1 X172.881 Y179.206 E.01992
G1 X172.234 Y179.429 E.01991
G1 X171.203 Y179.694 E.03098
G1 X170.219 Y179.851 E.02898
G1 X169.536 Y179.906 E.01994
G1 X169.001 Y179.921 E.01559
G1 X80.849 Y179.918 E2.56498
G1 X79.79 Y179.852 E.03087
G1 X78.808 Y179.697 E.02893
G1 X77.778 Y179.433 E.03094
G1 X76.843 Y179.097 E.02893
G1 X75.88 Y178.644 E.03094
G1 X75.023 Y178.138 E.02897
G1 X74.463 Y177.746 E.01988
G1 X73.643 Y177.068 E.03097
G1 X72.938 Y176.364 E.02897
G1 X72.493 Y175.845 E.01992
G1 X72.081 Y175.298 E.01992
G1 X71.51 Y174.4 E.03097
G1 X71.058 Y173.514 E.02893
G1 X70.665 Y172.525 E.03097
G1 X70.465 Y171.87 E.01991
G1 X70.306 Y171.204 E.01992
G1 X70.149 Y170.219 E.02902
G1 X70.094 Y169.536 E.01995
G1 X70.079 Y169.001 E.01559
G1 X70.082 Y80.849 E2.56498
G1 X70.148 Y79.79 E.03087
G1 X70.303 Y78.808 E.02893
G1 X70.567 Y77.778 E.03094
G1 X70.903 Y76.843 E.02893
G1 X71.356 Y75.88 E.03094
G1 X71.862 Y75.023 E.02897
G1 X72.254 Y74.463 E.01988
G1 X72.932 Y73.643 E.03097
G1 X73.24 Y73.335 E.01266
G1 X73.492 Y73.588 F30000
G1 F3000
G1 X73.888 Y73.192 E.0163
G1 X74.672 Y72.544 E.02959
G1 X75.468 Y72.004 E.02799
G1 X76.389 Y71.498 E.03057
G1 X76.971 Y71.237 E.01858
G1 X77.582 Y71.007 E.01898
G1 X78.508 Y70.737 E.02806
G1 X79.519 Y70.543 E.02996
G1 X80.491 Y70.451 E.02841
G1 X81.006 Y70.437 E.01499
G1 X169 Y70.437 E2.5604
G1 X169.808 Y70.47 E.02354
G1 X170.832 Y70.599 E.03005
G1 X171.77 Y70.808 E.02795
G1 X172.749 Y71.126 E.02995
G1 X173.642 Y71.514 E.02832
G1 X174.532 Y72.004 E.02958
G1 X175.337 Y72.551 E.02832
G1 X176.12 Y73.2 E.02959
G1 X176.8 Y73.879 E.02795
G1 X177.456 Y74.672 E.02996
G1 X177.996 Y75.467 E.02795
G1 X178.487 Y76.36 E.02967
G1 X178.873 Y77.251 E.02824
G1 X179.191 Y78.229 E.02995
G1 X179.401 Y79.167 E.02795
G1 X179.53 Y80.19 E.03001
G1 X179.563 Y81.01 E.02387
G1 X179.561 Y169.136 E2.56425
G1 X179.497 Y170.166 E.03001
G1 X179.347 Y171.114 E.02795
G1 X179.092 Y172.112 E.02996
G1 X178.768 Y173.016 E.02795
G1 X178.331 Y173.948 E.02996
G1 X177.84 Y174.78 E.02811
G1 X177.459 Y175.324 E.01931
G1 X176.807 Y176.113 E.02979
G1 X176.112 Y176.808 E.02861
G1 X175.326 Y177.458 E.02968
G1 X174.792 Y177.832 E.01896
G1 X174.23 Y178.176 E.01917
G1 X173.359 Y178.62 E.02846
G1 X172.757 Y178.871 E.01898
G1 X172.135 Y179.086 E.01914
G1 X171.135 Y179.343 E.03005
G1 X170.173 Y179.496 E.02835
G1 X169.52 Y179.549 E.01906
G1 X168.994 Y179.563 E.01529
G1 X80.864 Y179.561 E2.56438
G1 X79.834 Y179.497 E.03001
G1 X78.886 Y179.347 E.02795
G1 X77.888 Y179.092 E.02996
G1 X76.984 Y178.768 E.02795
G1 X76.052 Y178.331 E.02996
G1 X75.22 Y177.84 E.02811
G1 X74.676 Y177.459 E.01931
G1 X73.887 Y176.807 E.02979
G1 X73.198 Y176.118 E.02835
G1 X72.773 Y175.623 E.01898
G1 X72.377 Y175.098 E.01915
G1 X71.823 Y174.227 E.03005
G1 X71.382 Y173.362 E.02824
G1 X71.001 Y172.402 E.03005
G1 X70.809 Y171.773 E.01914
G1 X70.657 Y171.139 E.01898
G1 X70.504 Y170.173 E.02846
G1 X70.451 Y169.52 E.01906
G1 X70.437 Y168.994 E.01529
G1 X70.439 Y80.864 E2.56438
G1 X70.503 Y79.834 E.03001
M73 P1 R89
G1 X70.653 Y78.886 E.02795
G1 X70.908 Y77.888 E.02996
G1 X71.232 Y76.984 E.02795
G1 X71.67 Y76.052 E.02996
G1 X72.16 Y75.22 E.02811
G1 X72.541 Y74.676 E.01931
G1 X73.193 Y73.887 E.02979
G1 X73.464 Y73.616 E.01115
G1 X73.717 Y73.869 F30000
G1 F3000
G1 X74.133 Y73.453 E.01712
G1 X74.891 Y72.827 E.02861
G1 X75.659 Y72.306 E.02701
G1 X76.552 Y71.817 E.02964
G1 X77.111 Y71.566 E.01782
G1 X77.691 Y71.347 E.01804
G1 X78.586 Y71.086 E.02714
G1 X79.564 Y70.898 E.02898
G1 X80.516 Y70.807 E.02782
G1 X81.012 Y70.794 E.01444
G1 X168.99 Y70.794 E2.55995
G1 X169.783 Y70.826 E.02308
G1 X170.776 Y70.952 E.02913
G1 X171.68 Y71.155 E.02697
G1 X172.627 Y71.463 E.02897
G1 X173.489 Y71.837 E.02733
G1 X174.35 Y72.311 E.0286
G1 X175.126 Y72.84 E.02734
G1 X175.883 Y73.468 E.02861
G1 X176.538 Y74.124 E.02697
G1 X177.173 Y74.891 E.02898
G1 X177.693 Y75.658 E.02697
G1 X178.168 Y76.522 E.0287
G1 X178.54 Y77.382 E.02726
G1 X178.848 Y78.329 E.02896
G1 X179.049 Y79.233 E.02697
G1 X179.174 Y80.224 E.02907
G1 X179.206 Y81.019 E.02315
G1 X179.204 Y169.122 E2.56356
G1 X179.142 Y170.122 E.02915
G1 X178.998 Y171.037 E.02697
G1 X178.752 Y172.002 E.02898
G1 X178.439 Y172.875 E.02696
G1 X178.017 Y173.776 E.02898
G1 X177.541 Y174.583 E.02724
G1 X177.172 Y175.11 E.01874
G1 X176.546 Y175.868 E.0286
G1 X175.867 Y176.547 E.02792
G1 X175.105 Y177.176 E.02875
G1 X174.593 Y177.535 E.01819
G1 X174.059 Y177.862 E.01823
G1 X173.205 Y178.297 E.0279
G1 X172.627 Y178.538 E.01823
G1 X172.036 Y178.742 E.01818
G1 X171.067 Y178.992 E.02912
G1 X170.126 Y179.142 E.02773
G1 X169.503 Y179.192 E.01818
G1 X168.988 Y179.206 E.015
G1 X80.878 Y179.204 E2.56377
G1 X79.878 Y179.142 E.02915
G1 X78.963 Y178.998 E.02697
G1 X77.998 Y178.752 E.02898
G1 X77.125 Y178.439 E.02696
G1 X76.224 Y178.017 E.02897
G1 X75.417 Y177.541 E.02724
G1 X74.89 Y177.172 E.01874
G1 X74.131 Y176.546 E.02862
G1 X73.457 Y175.872 E.02773
G1 X73.049 Y175.397 E.01823
G1 X72.673 Y174.898 E.01818
G1 X72.136 Y174.054 E.02912
G1 X71.706 Y173.21 E.02755
G1 X71.337 Y172.28 E.02911
G1 X71.155 Y171.682 E.01818
G1 X71.009 Y171.073 E.01823
G1 X70.858 Y170.126 E.0279
G1 X70.808 Y169.503 E.01819
G1 X70.794 Y168.988 E.015
G1 X70.796 Y80.878 E2.56377
G1 X70.858 Y79.878 E.02915
G1 X71.002 Y78.963 E.02697
G1 X71.248 Y77.998 E.02898
G1 X71.561 Y77.125 E.02697
G1 X71.983 Y76.224 E.02898
G1 X72.459 Y75.417 E.02724
G1 X72.828 Y74.89 E.01873
G1 X73.454 Y74.132 E.0286
G1 X73.688 Y73.898 E.00964
G1 X73.941 Y74.151 F30000
G1 F3000
G1 X74.377 Y73.715 E.01794
G1 X75.11 Y73.111 E.02762
G1 X75.85 Y72.609 E.02603
G1 X76.715 Y72.135 E.02871
G1 X77.25 Y71.895 E.01706
G1 X77.8 Y71.688 E.01711
G1 X78.665 Y71.435 E.02623
G1 X79.61 Y71.253 E.02799
G1 X80.541 Y71.164 E.02722
G1 X81.018 Y71.151 E.01388
G1 X168.981 Y71.151 E2.55949
G1 X169.758 Y71.183 E.02262
G1 X170.719 Y71.305 E.02821
G1 X171.591 Y71.501 E.02598
G1 X172.505 Y71.799 E.02799
G1 X173.335 Y72.16 E.02635
G1 X174.167 Y72.619 E.02762
G1 X174.915 Y73.129 E.02636
G1 X175.646 Y73.736 E.02763
G1 X176.277 Y74.368 E.026
G1 X176.89 Y75.11 E.028
G1 X177.391 Y75.849 E.02599
G1 X177.849 Y76.684 E.02772
G1 X178.208 Y77.513 E.02628
G1 X178.504 Y78.428 E.02798
G1 X178.698 Y79.3 E.02599
G1 X178.818 Y80.258 E.02812
G1 X178.849 Y81.029 E.02243
G1 X178.847 Y169.107 E2.56287
G1 X178.787 Y170.078 E.02829
G1 X178.649 Y170.96 E.02599
G1 X178.411 Y171.893 E.028
G1 X178.11 Y172.734 E.02598
G1 X177.703 Y173.605 E.028
G1 X177.243 Y174.386 E.02637
G1 X176.885 Y174.897 E.01816
G1 X176.285 Y175.624 E.02742
G1 X175.623 Y176.285 E.02723
G1 X174.885 Y176.894 E.02782
G1 X174.4 Y177.234 E.01724
G1 X173.888 Y177.548 E.01748
G1 X173.051 Y177.975 E.02733
G1 X172.503 Y178.203 E.01729
G1 X171.937 Y178.398 E.01741
G1 X170.999 Y178.641 E.02819
G1 X170.08 Y178.787 E.0271
G1 X169.487 Y178.835 E.0173
G1 X168.982 Y178.849 E.0147
G1 X80.893 Y178.847 E2.56317
G1 X79.922 Y178.787 E.02829
G1 X79.04 Y178.649 E.02599
G1 X78.107 Y178.411 E.028
G1 X77.266 Y178.11 E.02598
G1 X76.395 Y177.703 E.02799
G1 X75.614 Y177.243 E.02637
G1 X75.103 Y176.885 E.01816
G1 X74.376 Y176.284 E.02744
G1 X73.717 Y175.626 E.0271
G1 X73.33 Y175.175 E.01728
G1 X72.969 Y174.698 E.01742
G1 X72.449 Y173.881 E.02818
G1 X72.03 Y173.058 E.02686
G1 X71.673 Y172.158 E.02818
G1 X71.498 Y171.585 E.01742
G1 X71.36 Y171.007 E.01729
G1 X71.213 Y170.08 E.02734
G1 X71.165 Y169.487 E.01731
G1 X71.151 Y168.982 E.0147
G1 X71.153 Y80.893 E2.56317
G1 X71.213 Y79.922 E.02829
G1 X71.351 Y79.04 E.02599
G1 X71.589 Y78.107 E.028
G1 X71.89 Y77.266 E.02599
G1 X72.298 Y76.395 E.028
G1 X72.757 Y75.614 E.02637
G1 X73.115 Y75.103 E.01816
G1 X73.715 Y74.376 E.02742
G1 X73.913 Y74.179 E.00813
G1 X74.166 Y74.432 F30000
G1 F3000
G1 X74.622 Y73.976 E.01875
G1 X75.328 Y73.394 E.02664
G1 X76.041 Y72.911 E.02504
G1 X76.878 Y72.453 E.02778
G1 X77.389 Y72.224 E.0163
G1 X77.91 Y72.028 E.01618
G1 X78.745 Y71.784 E.02532
G1 X79.656 Y71.608 E.02701
G1 X80.57 Y71.52 E.02671
G1 X168.976 Y71.508 E2.57239
G1 X169.732 Y71.54 E.02203
G1 X170.662 Y71.659 E.02728
G1 X171.501 Y71.847 E.025
G1 X172.383 Y72.135 E.027
G1 X173.182 Y72.483 E.02536
G1 X173.984 Y72.926 E.02664
G1 X174.704 Y73.418 E.02538
G1 X175.409 Y74.003 E.02666
G1 X176.016 Y74.612 E.02502
G1 X176.606 Y75.328 E.02702
G1 X177.088 Y76.04 E.02501
G1 X177.53 Y76.846 E.02674
G1 X177.875 Y77.644 E.0253
G1 X178.16 Y78.527 E.027
G1 X178.346 Y79.366 E.02501
G1 X178.462 Y80.292 E.02718
G1 X178.492 Y81.038 E.02171
G1 X178.49 Y169.093 E2.56218
G1 X178.432 Y170.034 E.02744
G1 X178.299 Y170.884 E.02502
G1 X178.071 Y171.784 E.02702
G1 X177.782 Y172.593 E.025
G1 X177.388 Y173.434 E.02701
G1 X176.944 Y174.189 E.0255
G1 X176.598 Y174.684 E.01758
G1 X176.023 Y175.379 E.02624
G1 X175.378 Y176.024 E.02654
G1 X174.666 Y176.612 E.02689
G1 X174.202 Y176.937 E.01648
G1 X173.717 Y177.234 E.01654
G1 X172.898 Y177.652 E.02677
G1 X172.373 Y177.87 E.01654
G1 X171.838 Y178.055 E.01646
G1 X170.931 Y178.289 E.02726
G1 X170.033 Y178.433 E.02647
G1 X169.47 Y178.478 E.01643
G1 X168.975 Y178.492 E.01441
G1 X80.907 Y178.49 E2.56256
G1 X79.966 Y178.432 E.02744
G1 X79.116 Y178.299 E.02502
G1 X78.216 Y178.071 E.02702
G1 X77.407 Y177.782 E.025
G1 X76.566 Y177.388 E.02701
G1 X75.811 Y176.944 E.0255
G1 X75.316 Y176.598 E.01758
G1 X74.62 Y176.023 E.02627
G1 X73.976 Y175.38 E.02647
G1 X73.606 Y174.949 E.01653
G1 X73.265 Y174.497 E.01646
G1 X72.762 Y173.707 E.02725
G1 X72.353 Y172.907 E.02616
G1 X72.01 Y172.036 E.02725
G1 X71.844 Y171.495 E.01646
G1 X71.712 Y170.942 E.01654
G1 X71.567 Y170.033 E.02677
G1 X71.522 Y169.47 E.01643
G1 X71.508 Y168.975 E.01441
G1 X71.51 Y80.907 E2.56256
G1 X71.568 Y79.966 E.02744
G1 X71.701 Y79.116 E.02502
G1 X71.929 Y78.217 E.02702
G1 X72.218 Y77.407 E.025
G1 X72.612 Y76.566 E.02702
G1 X73.056 Y75.811 E.0255
G1 X73.402 Y75.316 E.01758
G1 X73.977 Y74.621 E.02624
G1 X74.137 Y74.46 E.00662
G1 X74.39 Y74.713 F30000
G1 F3000
G1 X74.866 Y74.237 E.01957
G1 X75.546 Y73.677 E.02565
G1 X76.231 Y73.214 E.02406
G1 X77.041 Y72.771 E.02685
G1 X77.522 Y72.556 E.01535
G1 X78.019 Y72.368 E.01545
G1 X78.824 Y72.133 E.02441
G1 X79.702 Y71.962 E.02602
G1 X80.592 Y71.877 E.02601
G1 X168.971 Y71.865 E2.57159
G1 X169.707 Y71.896 E.02144
G1 X170.605 Y72.012 E.02636
G1 X171.411 Y72.194 E.02402
G1 X172.261 Y72.472 E.02602
G1 X173.028 Y72.807 E.02438
G1 X173.8 Y73.233 E.02567
G1 X174.492 Y73.707 E.02439
G1 X175.171 Y74.271 E.02568
G1 X175.754 Y74.856 E.02404
G1 X176.323 Y75.547 E.02604
G1 X176.786 Y76.231 E.02403
G1 X177.211 Y77.007 E.02576
G1 X177.542 Y77.775 E.02432
G1 X177.816 Y78.626 E.02601
G1 X177.995 Y79.432 E.02403
G1 X178.106 Y80.326 E.02624
G1 X178.135 Y81.047 E.02099
G1 X178.133 Y169.079 E2.56149
G1 X178.077 Y169.991 E.02658
G1 X177.95 Y170.807 E.02404
G1 X177.73 Y171.674 E.02604
G1 X177.453 Y172.452 E.02402
G1 X177.074 Y173.263 E.02603
G1 X176.646 Y173.992 E.02462
G1 X176.311 Y174.471 E.017
G1 X175.762 Y175.135 E.02505
G1 X175.134 Y175.763 E.02584
G1 X174.446 Y176.33 E.02596
G1 X174.003 Y176.64 E.01572
G1 X173.546 Y176.92 E.0156
G1 X172.744 Y177.329 E.0262
G1 X172.249 Y177.535 E.0156
G1 X171.739 Y177.711 E.0157
G1 X170.863 Y177.938 E.02633
G1 X169.986 Y178.078 E.02584
G1 X169.454 Y178.121 E.01555
G1 X168.969 Y178.135 E.01412
G1 X80.921 Y178.133 E2.56195
G1 X80.009 Y178.077 E.02659
G1 X79.193 Y177.95 E.02404
G1 X78.326 Y177.73 E.02604
G1 X77.548 Y177.453 E.02402
G1 X76.737 Y177.074 E.02603
G1 X76.008 Y176.646 E.02462
G1 X75.529 Y176.311 E.017
G1 X74.864 Y175.761 E.02509
G1 X74.235 Y175.134 E.02585
G1 X73.887 Y174.727 E.01559
G1 X73.561 Y174.297 E.0157
G1 X73.075 Y173.534 E.02631
G1 X72.677 Y172.755 E.02547
G1 X72.346 Y171.914 E.02631
G1 X72.188 Y171.397 E.0157
G1 X72.063 Y170.876 E.0156
G1 X71.922 Y169.987 E.02621
G1 X71.879 Y169.454 E.01556
G1 X71.865 Y168.969 E.01412
G1 X71.867 Y80.921 E2.56195
G1 X71.923 Y80.009 E.02658
G1 X72.05 Y79.193 E.02404
G1 X72.27 Y78.326 E.02604
G1 X72.547 Y77.548 E.02402
G1 X72.926 Y76.737 E.02604
G1 X73.354 Y76.008 E.02462
G1 X73.689 Y75.529 E.017
G1 X74.238 Y74.865 E.02506
G1 X74.362 Y74.741 E.00511
G1 X74.615 Y74.994 F30000
G1 F3000
G1 X75.102 Y74.506 E.02008
G1 X75.765 Y73.961 E.02495
G1 X76.422 Y73.517 E.02308
G1 X77.204 Y73.09 E.02592
G1 X77.662 Y72.885 E.0146
G1 X78.129 Y72.709 E.01453
G1 X78.904 Y72.481 E.0235
G1 X79.758 Y72.316 E.02533
G1 X80.614 Y72.234 E.02502
G1 X168.965 Y72.223 E2.57079
G1 X169.681 Y72.253 E.02084
G1 X170.548 Y72.365 E.02544
G1 X171.32 Y72.54 E.02304
G1 X172.138 Y72.808 E.02504
G1 X172.875 Y73.13 E.02339
G1 X173.617 Y73.541 E.02469
G1 X174.281 Y73.995 E.02341
G1 X174.934 Y74.538 E.02471
G1 X175.492 Y75.1 E.02306
G1 X176.04 Y75.765 E.02506
G1 X176.483 Y76.421 E.02305
G1 X176.892 Y77.169 E.02479
G1 X177.209 Y77.905 E.02334
G1 X177.472 Y78.724 E.02503
G1 X177.643 Y79.497 E.02305
G1 X177.75 Y80.36 E.0253
G1 X177.778 Y81.056 E.02027
G1 X177.776 Y169.064 E2.56081
G1 X177.721 Y169.947 E.02574
G1 X177.6 Y170.731 E.02307
G1 X177.389 Y171.565 E.02506
G1 X177.124 Y172.311 E.02304
G1 X176.76 Y173.092 E.02505
G1 X176.347 Y173.796 E.02373
G1 X176.024 Y174.258 E.01642
G1 X175.501 Y174.89 E.02387
G1 X174.89 Y175.501 E.02515
G1 X174.226 Y176.048 E.02503
G1 X173.81 Y176.339 E.01477
G1 X173.375 Y176.606 E.01485
G1 X172.59 Y177.006 E.02564
G1 X172.119 Y177.202 E.01485
G1 X171.64 Y177.368 E.01475
G1 X170.795 Y177.587 E.02539
G1 X169.939 Y177.724 E.02521
G1 X169.437 Y177.764 E.01467
G1 X168.962 Y177.778 E.01382
G1 X80.936 Y177.776 E2.56135
G1 X80.053 Y177.721 E.02574
G1 X79.269 Y177.6 E.02307
G1 X78.435 Y177.389 E.02506
