; HEADER_BLOCK_START
; generated by OrcaSlicer 2.3.1 on 2026-02-11 at 07:40:48
; total layer number: 81
; filament_density: 1.24
; filament_diameter: 1.75
; max_z_height: 16.60
; HEADER_BLOCK_END

; external perimeters extrusion width = 0.40mm
; perimeters extrusion width = 0.40mm
; infill extrusion width = 0.40mm
; solid infill extrusion width = 0.40mm
; top infill extrusion width = 0.40mm
; first layer extrusion width = 0.40mm

; EXECUTABLE_BLOCK_START
M73 P0 R98
M201 X500 Y500 Z100 E5000
M203 X500 Y500 Z10 E60
M204 P500 R1000 T500
M205 X8.00 Y8.00 Z0.40 E5.00 ; sets the jerk limits, mm/sec
;TYPE:Custom
G90 ; use absolute coordinates
M83 ; extruder relative mode
M140 S55 ; set final bed temp
M104 S150 ; set temporary nozzle temp to prevent oozing during homing
G4 S10 ; allow partial nozzle warmup
G28 ; home all axis
G1 Z50 F240
G1 X2 Y10 F3000
M104 S220 ; set final nozzle temp
M190 S55 ; wait for bed temp to stabilize
M109 S220 ; wait for nozzle temp to stabilize
G1 Z0.28 F240
G92 E0
G1 Y140 E10 F1500 ; prime the nozzle
G1 X2.3 F5000
M73 P0 R97
G92 E0
G1 Y10 E10 F1200 ; prime the nozzle
G92 E0
G90
G21
M83 ; use relative distances for extrusion
; Filament gcode
M106 S0
;LAYER_CHANGE
;Z:0.2
;HEIGHT:0.2
;BEFORE_LAYER_CHANGE
;0.2
G92 E0

G1 E-4 F3600
;_SET_FAN_SPEED_CHANGING_LAYER
M204 S500
; printing object PRINT_CLIP_MANTA.stl id:15 copy 0
G1 Z.6 F30000
G1 X46.75 Y108.75
G1 Z.6
G1 Z.2
G1 E4 F2400
;TYPE:Inner wall
;WIDTH:0.4
G1 F3000
G1 X46.75 Y110.35 E.04656
G1 X40.25 Y110.35 E.18913
G1 X40.25 Y108.75 E.04656
G1 X36.25 Y108.75 E.11639
G1 X36.25 Y102.25 E.18913
G1 X64.75 Y102.25 E.82928
G1 X64.75 Y108.75 E.18913
G1 X60.75 Y108.75 E.11639
G1 X60.75 Y110.35 E.04656
G1 X54.25 Y110.35 E.18913
G1 X54.25 Y108.75 E.04656
G1 X46.79 Y108.75 E.21707
G1 X47.15 Y109.15 F30000
;TYPE:Outer wall
G1 F3000
G1 X47.15 Y110.75 E.04656
G1 X39.85 Y110.75 E.21241
G1 X39.85 Y109.15 E.04656
G1 X35.85 Y109.15 E.11639
G1 X35.85 Y101.85 E.21241
G1 X65.15 Y101.85 E.85256
G1 X65.15 Y109.15 E.21241
G1 X61.15 Y109.15 E.11639
G1 X61.15 Y110.75 E.04656
G1 X53.85 Y110.75 E.21241
G1 X53.85 Y109.15 E.04656
G1 X47.19 Y109.15 E.19379
G1 E-2.8 F3600
;WIPE_START
G1 F3000
G1 X47.165 Y110.15 E-1.2
;WIPE_END
G1 Z.6 F30000
G1 X64.643 Y103.086 Z.6
G1 Z.2
G1 E4 F2400
;TYPE:Bottom surface
;WIDTH:0.403159
G1 F6300
G1 X64.075 Y102.518 E.02357
G1 X63.566 Y102.518 E.01495
G1 X64.482 Y103.434 E.03805
G1 X64.482 Y103.944 E.01496
G1 X63.056 Y102.518 E.0592
G1 X62.547 Y102.518 E.01496
G1 X64.482 Y104.453 E.08035
G1 X64.482 Y104.963 E.01496
G1 X62.037 Y102.518 E.1015
G1 X61.528 Y102.518 E.01496
G1 X64.482 Y105.472 E.12265
G1 X64.482 Y105.982 E.01496
G1 X61.018 Y102.518 E.1438
G1 X60.509 Y102.518 E.01496
G1 X64.482 Y106.491 E.16495
G1 X64.482 Y107.001 E.01496
G1 X59.999 Y102.518 E.1861
G1 X59.49 Y102.518 E.01495
G1 X64.482 Y107.51 E.20725
G1 X64.482 Y108.02 E.01496
G1 X58.98 Y102.518 E.2284
G1 X58.471 Y102.518 E.01496
G1 X64.435 Y108.482 E.24761
G1 X63.926 Y108.482 E.01496
G1 X57.962 Y102.518 E.24761
G1 X57.452 Y102.518 E.01496
G1 X63.417 Y108.482 E.24761
G1 X62.907 Y108.482 E.01496
G1 X56.943 Y102.518 E.24761
G1 X56.433 Y102.518 E.01496
G1 X62.398 Y108.482 E.24761
G1 X61.888 Y108.482 E.01495
G1 X55.924 Y102.518 E.24761
G1 X55.414 Y102.518 E.01496
G1 X61.379 Y108.482 E.24761
G1 X60.869 Y108.482 E.01496
G1 X54.905 Y102.518 E.24761
G1 X54.395 Y102.518 E.01496
G1 X60.482 Y108.605 E.25269
G1 X60.482 Y109.114 E.01496
G1 X53.886 Y102.518 E.27384
G1 X53.376 Y102.518 E.01496
G1 X60.482 Y109.624 E.29499
G1 X60.482 Y110.082 E.01346
G1 X60.431 Y110.082 E.00149
G1 X52.867 Y102.518 E.31403
G1 X52.358 Y102.518 E.01496
G1 X59.922 Y110.082 E.31403
G1 X59.413 Y110.082 E.01496
G1 X51.848 Y102.518 E.31403
G1 X51.339 Y102.518 E.01496
G1 X58.903 Y110.082 E.31403
G1 X58.394 Y110.082 E.01496
G1 X50.829 Y102.518 E.31403
G1 X50.32 Y102.518 E.01496
G1 X57.884 Y110.082 E.31403
G1 X57.375 Y110.082 E.01496
G1 X49.81 Y102.518 E.31403
G1 X49.301 Y102.518 E.01496
G1 X56.865 Y110.082 E.31403
G1 X56.356 Y110.082 E.01496
G1 X48.791 Y102.518 E.31403
G1 X48.282 Y102.518 E.01496
G1 X55.846 Y110.082 E.31403
G1 X55.337 Y110.082 E.01496
G1 X54.518 Y109.263 E.034
G1 X54.518 Y109.773 E.01496
G1 X54.988 Y110.243 E.01952
G1 X53.898 Y108.643 F30000
G1 F6300
G1 X47.772 Y102.518 E.25428
G1 X47.263 Y102.518 E.01496
G1 X53.227 Y108.482 E.24761
G1 X52.718 Y108.482 E.01496
G1 X46.754 Y102.518 E.24761
G1 X46.244 Y102.518 E.01496
G1 X52.209 Y108.482 E.24761
G1 X51.699 Y108.482 E.01496
G1 X45.735 Y102.518 E.24761
G1 X45.225 Y102.518 E.01495
G1 X51.19 Y108.482 E.24761
G1 X50.68 Y108.482 E.01495
G1 X44.716 Y102.518 E.24761
G1 X44.206 Y102.518 E.01496
G1 X50.171 Y108.482 E.24761
G1 X49.661 Y108.482 E.01496
G1 X43.697 Y102.518 E.24761
G1 X43.187 Y102.518 E.01496
G1 X49.152 Y108.482 E.24761
G1 X48.642 Y108.482 E.01496
G1 X42.678 Y102.518 E.24761
G1 X42.168 Y102.518 E.01496
G1 X48.133 Y108.482 E.24761
G1 X47.623 Y108.482 E.01496
G1 X41.659 Y102.518 E.24761
G1 X41.15 Y102.518 E.01495
G1 X47.114 Y108.482 E.24761
G1 X46.605 Y108.482 E.01496
G1 X40.64 Y102.518 E.24761
G1 X40.131 Y102.518 E.01496
G1 X46.482 Y108.869 E.26368
G1 X46.482 Y109.379 E.01495
G1 X39.621 Y102.518 E.28483
G1 X39.112 Y102.518 E.01496
G1 X46.482 Y109.888 E.30598
G1 X46.482 Y110.082 E.00569
G1 X46.167 Y110.082 E.00926
G1 X38.602 Y102.518 E.31403
G1 X38.093 Y102.518 E.01496
G1 X45.657 Y110.082 E.31403
G1 X45.148 Y110.082 E.01496
G1 X37.583 Y102.518 E.31403
G1 X37.074 Y102.518 E.01495
G1 X44.638 Y110.082 E.31403
G1 X44.129 Y110.082 E.01495
G1 X36.564 Y102.518 E.31403
G1 X36.518 Y102.518 E.00137
G1 X36.518 Y102.981 E.01359
G1 X43.619 Y110.082 E.29482
G1 X43.11 Y110.082 E.01496
G1 X36.518 Y103.49 E.27367
G1 X36.518 Y104 E.01496
G1 X42.601 Y110.082 E.25252
G1 X42.091 Y110.082 E.01496
G1 X36.518 Y104.509 E.23137
G1 X36.518 Y105.018 E.01496
M73 P1 R97
G1 X39.982 Y108.482 E.1438
G1 X39.472 Y108.482 E.01496
G1 X36.518 Y105.528 E.12265
G1 X36.518 Y106.037 E.01495
G1 X38.963 Y108.482 E.1015
G1 X38.453 Y108.482 E.01496
G1 X36.518 Y106.547 E.08035
G1 X36.518 Y107.056 E.01496
G1 X37.944 Y108.482 E.0592
G1 X37.434 Y108.482 E.01496
G1 X36.518 Y107.566 E.03805
G1 X36.518 Y108.075 E.01496
G1 X37.086 Y108.643 E.02357
G1 E-3.42857 F3600
;WIPE_START
G1 F6300
G1 X36.518 Y108.075 E-.45881
G1 X36.518 Y107.878 E-.11262
;WIPE_END
G1 Z.6 F30000
G1 X40.357 Y108.858 Z.6
G1 Z.2
G1 E4 F2400
G1 F6300
G1 X41.582 Y110.082 E.05083
G1 X41.072 Y110.082 E.01496
G1 X40.518 Y109.528 E.02301
G1 X40.518 Y110.037 E.01496
G1 X40.723 Y110.243 E.00853
G1 E-3.42857 F3600
;WIPE_START
G1 F6300
G1 X40.518 Y110.037 E-.16612
G1 X40.518 Y109.528 E-.29112
G1 X40.659 Y109.669 E-.11419
;WIPE_END
G1 Z.6 F30000
G1 X54.25 Y87.75 Z.6
G1 Z.2
G1 E4 F2400
;TYPE:Inner wall
;WIDTH:0.4
G1 F3000
G1 X46.75 Y87.75 E.21823
G1 X46.75 Y89.35 E.04656
G1 X40.25 Y89.35 E.18913
G1 X40.25 Y87.75 E.04656
G1 X36.25 Y87.75 E.11639
G1 X36.25 Y81.25 E.18913
G1 X64.75 Y81.25 E.82928
G1 X64.75 Y87.75 E.18913
G1 X60.75 Y87.75 E.11639
G1 X60.75 Y89.35 E.04656
G1 X54.25 Y89.35 E.18913
G1 X54.25 Y87.79 E.04539
G1 X53.85 Y88.15 F30000
;TYPE:Outer wall
G1 F3000
G1 X47.15 Y88.15 E.19495
G1 X47.15 Y89.75 E.04656
G1 X39.85 Y89.75 E.21241
G1 X39.85 Y88.15 E.04656
G1 X35.85 Y88.15 E.11639
G1 X35.85 Y80.85 E.21241
G1 X65.15 Y80.85 E.85256
G1 X65.15 Y88.15 E.21241
G1 X61.15 Y88.15 E.11639
G1 X61.15 Y89.75 E.04656
G1 X53.85 Y89.75 E.21241
G1 X53.85 Y88.19 E.04539
G1 E-2.8 F3600
;WIPE_START
G1 F3000
G1 X52.85 Y88.184 E-1.2
;WIPE_END
G1 Z.6 F30000
G1 X64.643 Y82.086 Z.6
G1 Z.2
G1 E4 F2400
;TYPE:Bottom surface
;WIDTH:0.403159
G1 F6300
G1 X64.075 Y81.518 E.02357
G1 X63.566 Y81.518 E.01496
G1 X64.482 Y82.434 E.03805
G1 X64.482 Y82.944 E.01496
G1 X63.056 Y81.518 E.0592
G1 X62.547 Y81.518 E.01496
G1 X64.482 Y83.453 E.08035
G1 X64.482 Y83.963 E.01496
G1 X62.037 Y81.518 E.1015
G1 X61.528 Y81.518 E.01496
G1 X64.482 Y84.472 E.12265
G1 X64.482 Y84.982 E.01496
G1 X61.018 Y81.518 E.1438
G1 X60.509 Y81.518 E.01496
G1 X64.482 Y85.491 E.16495
G1 X64.482 Y86.001 E.01496
G1 X59.999 Y81.518 E.1861
G1 X59.49 Y81.518 E.01496
G1 X64.482 Y86.51 E.20725
G1 X64.482 Y87.02 E.01496
G1 X58.98 Y81.518 E.2284
G1 X58.471 Y81.518 E.01496
G1 X64.435 Y87.482 E.24761
G1 X63.926 Y87.482 E.01496
G1 X57.962 Y81.518 E.24761
G1 X57.452 Y81.518 E.01496
G1 X63.417 Y87.482 E.24761
G1 X62.907 Y87.482 E.01496
G1 X56.943 Y81.518 E.24761
G1 X56.433 Y81.518 E.01496
G1 X62.398 Y87.482 E.24761
G1 X61.888 Y87.482 E.01496
G1 X55.924 Y81.518 E.24761
G1 X55.414 Y81.518 E.01495
G1 X61.379 Y87.482 E.24761
G1 X60.869 Y87.482 E.01495
G1 X54.905 Y81.518 E.24761
G1 X54.395 Y81.518 E.01496
G1 X60.482 Y87.605 E.25269
G1 X60.482 Y88.114 E.01496
G1 X53.886 Y81.518 E.27384
G1 X53.376 Y81.518 E.01496
G1 X60.482 Y88.624 E.29499
G1 X60.482 Y89.082 E.01346
G1 X60.431 Y89.082 E.00149
G1 X52.867 Y81.518 E.31403
G1 X52.358 Y81.518 E.01496
G1 X59.922 Y89.082 E.31403
G1 X59.413 Y89.082 E.01496
G1 X51.848 Y81.518 E.31403
G1 X51.339 Y81.518 E.01495
G1 X58.903 Y89.082 E.31403
G1 X58.394 Y89.082 E.01496
G1 X50.829 Y81.518 E.31403
G1 X50.32 Y81.518 E.01496
G1 X57.884 Y89.082 E.31403
G1 X57.375 Y89.082 E.01495
G1 X49.81 Y81.518 E.31403
G1 X49.301 Y81.518 E.01496
G1 X56.865 Y89.082 E.31403
G1 X56.356 Y89.082 E.01496
G1 X48.791 Y81.518 E.31403
G1 X48.282 Y81.518 E.01496
G1 X55.846 Y89.082 E.31403
G1 X55.337 Y89.082 E.01496
G1 X54.518 Y88.263 E.034
G1 X54.518 Y88.773 E.01495
G1 X54.988 Y89.243 E.01952
G1 X53.898 Y87.643 F30000
G1 F6300
G1 X47.772 Y81.518 E.25428
G1 X47.263 Y81.518 E.01495
G1 X53.227 Y87.482 E.24761
G1 X52.718 Y87.482 E.01496
G1 X46.754 Y81.518 E.24761
G1 X46.244 Y81.518 E.01496
G1 X52.209 Y87.482 E.24761
G1 X51.699 Y87.482 E.01496
G1 X45.735 Y81.518 E.24761
G1 X45.225 Y81.518 E.01496
G1 X51.19 Y87.482 E.24761
G1 X50.68 Y87.482 E.01496
G1 X44.716 Y81.518 E.24761
G1 X44.206 Y81.518 E.01496
G1 X50.171 Y87.482 E.24761
G1 X49.661 Y87.482 E.01496
G1 X43.697 Y81.518 E.24761
G1 X43.187 Y81.518 E.01496
G1 X49.152 Y87.482 E.24761
G1 X48.642 Y87.482 E.01496
G1 X42.678 Y81.518 E.24761
G1 X42.168 Y81.518 E.01496
G1 X48.133 Y87.482 E.24761
G1 X47.623 Y87.482 E.01496
G1 X41.659 Y81.518 E.24761
G1 X41.15 Y81.518 E.01496
G1 X47.114 Y87.482 E.24761
G1 X46.605 Y87.482 E.01496
G1 X40.64 Y81.518 E.24761
G1 X40.131 Y81.518 E.01496
G1 X46.482 Y87.869 E.26368
G1 X46.482 Y88.379 E.01496
G1 X39.621 Y81.518 E.28483
G1 X39.112 Y81.518 E.01496
G1 X46.482 Y88.888 E.30598
G1 X46.482 Y89.082 E.00569
G1 X46.167 Y89.082 E.00926
G1 X38.602 Y81.518 E.31403
G1 X38.093 Y81.518 E.01496
G1 X45.657 Y89.082 E.31403
G1 X45.148 Y89.082 E.01496
G1 X37.583 Y81.518 E.31403
G1 X37.074 Y81.518 E.01496
G1 X44.638 Y89.082 E.31403
G1 X44.129 Y89.082 E.01496
G1 X36.564 Y81.518 E.31403
G1 X36.518 Y81.518 E.00137
G1 X36.518 Y81.981 E.01359
G1 X43.619 Y89.082 E.29482
G1 X43.11 Y89.082 E.01495
G1 X36.518 Y82.49 E.27367
G1 X36.518 Y83 E.01496
G1 X42.601 Y89.082 E.25252
G1 X42.091 Y89.082 E.01496
G1 X36.518 Y83.509 E.23137
G1 X36.518 Y84.018 E.01496
G1 X39.982 Y87.482 E.1438
G1 X39.472 Y87.482 E.01496
G1 X36.518 Y84.528 E.12265
G1 X36.518 Y85.037 E.01496
G1 X38.963 Y87.482 E.1015
G1 X38.453 Y87.482 E.01495
G1 X36.518 Y85.547 E.08035
G1 X36.518 Y86.056 E.01496
G1 X37.944 Y87.482 E.0592
G1 X37.434 Y87.482 E.01496
G1 X36.518 Y86.566 E.03805
G1 X36.518 Y87.075 E.01496
G1 X37.086 Y87.643 E.02357
G1 E-3.42857 F3600
;WIPE_START
G1 F6300
G1 X36.518 Y87.075 E-.45881
G1 X36.518 Y86.878 E-.11262
;WIPE_END
G1 Z.6 F30000
G1 X40.357 Y87.858 Z.6
G1 Z.2
G1 E4 F2400
G1 F6300
G1 X41.582 Y89.082 E.05083
G1 X41.072 Y89.082 E.01496
G1 X40.518 Y88.528 E.02301
G1 X40.518 Y89.037 E.01496
G1 X40.723 Y89.243 E.00853
G1 E-3.42857 F3600
;WIPE_START
G1 F6300
G1 X40.518 Y89.037 E-.16612
G1 X40.518 Y88.528 E-.29112
G1 X40.659 Y88.669 E-.11419
;WIPE_END
G1 Z.6 F30000
G1 X87.25 Y87.75 Z.6
G1 Z.2
G1 E4 F2400
;TYPE:Inner wall
;WIDTH:0.4
G1 F3000
G1 X79.75 Y87.75 E.21823
G1 X79.75 Y89.35 E.04656
G1 X73.25 Y89.35 E.18913
G1 X73.25 Y87.75 E.04656
G1 X69.25 Y87.75 E.11639
G1 X69.25 Y81.25 E.18913
G1 X97.75 Y81.25 E.82928
G1 X97.75 Y87.75 E.18913
M73 P1 R96
G1 X93.75 Y87.75 E.11639
G1 X93.75 Y89.35 E.04656
G1 X87.25 Y89.35 E.18913
G1 X87.25 Y87.79 E.04539
G1 X86.85 Y88.15 F30000
;TYPE:Outer wall
G1 F3000
G1 X80.15 Y88.15 E.19495
G1 X80.15 Y89.75 E.04656
G1 X72.85 Y89.75 E.21241
G1 X72.85 Y88.15 E.04656
G1 X68.85 Y88.15 E.11639
G1 X68.85 Y80.85 E.21241
G1 X98.15 Y80.85 E.85256
G1 X98.15 Y88.15 E.21241
G1 X94.15 Y88.15 E.11639
G1 X94.15 Y89.75 E.04656
G1 X86.85 Y89.75 E.21241
G1 X86.85 Y88.19 E.04539
G1 E-2.8 F3600
;WIPE_START
G1 F3000
G1 X85.85 Y88.184 E-1.2
;WIPE_END
G1 Z.6 F30000
G1 X97.643 Y82.086 Z.6
G1 Z.2
G1 E4 F2400
;TYPE:Bottom surface
;WIDTH:0.403159
G1 F6300
G1 X97.075 Y81.518 E.02357
G1 X96.566 Y81.518 E.01496
G1 X97.482 Y82.434 E.03805
G1 X97.482 Y82.944 E.01496
G1 X96.056 Y81.518 E.0592
G1 X95.547 Y81.518 E.01495
G1 X97.482 Y83.453 E.08035
G1 X97.482 Y83.963 E.01496
G1 X95.037 Y81.518 E.1015
G1 X94.528 Y81.518 E.01496
G1 X97.482 Y84.472 E.12265
G1 X97.482 Y84.982 E.01496
G1 X94.018 Y81.518 E.1438
G1 X93.509 Y81.518 E.01496
G1 X97.482 Y85.491 E.16495
G1 X97.482 Y86.001 E.01496
G1 X92.999 Y81.518 E.1861
G1 X92.49 Y81.518 E.01496
G1 X97.482 Y86.51 E.20725
G1 X97.482 Y87.02 E.01496
G1 X91.98 Y81.518 E.2284
G1 X91.471 Y81.518 E.01496
G1 X97.435 Y87.482 E.24761
G1 X96.926 Y87.482 E.01496
G1 X90.962 Y81.518 E.24761
G1 X90.452 Y81.518 E.01496
G1 X96.417 Y87.482 E.24761
G1 X95.907 Y87.482 E.01496
G1 X89.943 Y81.518 E.24761
G1 X89.433 Y81.518 E.01496
G1 X95.398 Y87.482 E.24761
G1 X94.888 Y87.482 E.01495
G1 X88.924 Y81.518 E.24761
G1 X88.414 Y81.518 E.01496
G1 X94.379 Y87.482 E.24761
G1 X93.869 Y87.482 E.01496
G1 X87.905 Y81.518 E.24761
G1 X87.395 Y81.518 E.01496
G1 X93.482 Y87.605 E.25269
G1 X93.482 Y88.114 E.01496
G1 X86.886 Y81.518 E.27384
G1 X86.376 Y81.518 E.01496
G1 X93.482 Y88.624 E.29499
G1 X93.482 Y89.082 E.01346
G1 X93.431 Y89.082 E.00149
G1 X85.867 Y81.518 E.31403
G1 X85.358 Y81.518 E.01496
G1 X92.922 Y89.082 E.31403
G1 X92.413 Y89.082 E.01496
G1 X84.848 Y81.518 E.31403
G1 X84.339 Y81.518 E.01496
G1 X91.903 Y89.082 E.31403
G1 X91.394 Y89.082 E.01496
G1 X83.829 Y81.518 E.31403
G1 X83.32 Y81.518 E.01495
G1 X90.884 Y89.082 E.31403
G1 X90.375 Y89.082 E.01496
G1 X82.81 Y81.518 E.31403
G1 X82.301 Y81.518 E.01496
G1 X89.865 Y89.082 E.31403
G1 X89.356 Y89.082 E.01496
G1 X81.791 Y81.518 E.31403
G1 X81.282 Y81.518 E.01495
G1 X88.846 Y89.082 E.31403
G1 X88.337 Y89.082 E.01496
G1 X87.518 Y88.263 E.034
G1 X87.518 Y88.773 E.01496
G1 X87.988 Y89.243 E.01952
G1 X86.898 Y87.643 F30000
G1 F6300
G1 X80.772 Y81.518 E.25428
G1 X80.263 Y81.518 E.01496
G1 X86.227 Y87.482 E.24761
G1 X85.718 Y87.482 E.01496
G1 X79.754 Y81.518 E.24761
G1 X79.244 Y81.518 E.01496
G1 X85.209 Y87.482 E.24761
G1 X84.699 Y87.482 E.01496
G1 X78.735 Y81.518 E.24761
G1 X78.225 Y81.518 E.01496
G1 X84.19 Y87.482 E.24761
G1 X83.68 Y87.482 E.01496
G1 X77.716 Y81.518 E.24761
G1 X77.206 Y81.518 E.01495
G1 X83.171 Y87.482 E.24761
G1 X82.661 Y87.482 E.01495
G1 X76.697 Y81.518 E.24761
G1 X76.187 Y81.518 E.01496
G1 X82.152 Y87.482 E.24761
G1 X81.642 Y87.482 E.01496
G1 X75.678 Y81.518 E.24761
G1 X75.168 Y81.518 E.01496
G1 X81.133 Y87.482 E.24761
G1 X80.623 Y87.482 E.01496
G1 X74.659 Y81.518 E.24761
G1 X74.15 Y81.518 E.01496
G1 X80.114 Y87.482 E.24761
G1 X79.605 Y87.482 E.01496
G1 X73.64 Y81.518 E.24761
G1 X73.131 Y81.518 E.01495
G1 X79.482 Y87.869 E.26368
G1 X79.482 Y88.379 E.01496
G1 X72.621 Y81.518 E.28483
G1 X72.112 Y81.518 E.01496
G1 X79.482 Y88.888 E.30598
G1 X79.482 Y89.082 E.00569
G1 X79.167 Y89.082 E.00926
G1 X71.602 Y81.518 E.31403
G1 X71.093 Y81.518 E.01496
G1 X78.657 Y89.082 E.31403
G1 X78.148 Y89.082 E.01496
G1 X70.583 Y81.518 E.31403
G1 X70.074 Y81.518 E.01496
G1 X77.638 Y89.082 E.31403
G1 X77.129 Y89.082 E.01496
G1 X69.564 Y81.518 E.31403
G1 X69.518 Y81.518 E.00137
G1 X69.518 Y81.981 E.01359
G1 X76.619 Y89.082 E.29482
G1 X76.11 Y89.082 E.01496
G1 X69.518 Y82.49 E.27367
G1 X69.518 Y83 E.01496
G1 X75.601 Y89.082 E.25252
G1 X75.091 Y89.082 E.01496
G1 X69.518 Y83.509 E.23137
G1 X69.518 Y84.018 E.01496
G1 X72.982 Y87.482 E.1438
