; HEADER_BLOCK_START
; generated by OrcaSlicer 2.3.1 on 2026-02-10 at 17:32:44
; total layer number: 160
; filament_density: 1.24
; filament_diameter: 1.75
; max_z_height: 32.00
; HEADER_BLOCK_END

; external perimeters extrusion width = 0.40mm
; perimeters extrusion width = 0.40mm
; infill extrusion width = 0.40mm
; solid infill extrusion width = 0.40mm
; top infill extrusion width = 0.40mm
; first layer extrusion width = 0.40mm

; EXECUTABLE_BLOCK_START
M73 P0 R270
M201 X500 Y500 Z100 E5000
M203 X500 Y500 Z10 E60
M204 P500 R1000 T500
M205 X8.00 Y8.00 Z0.40 E5.00 ; sets the jerk limits, mm/sec
;TYPE:Custom
G90 ; use absolute coordinates
M83 ; extruder relative mode
M140 S55 ; set final bed temp
M104 S150 ; set temporary nozzle temp to prevent oozing during homing
G4 S10 ; allow partial nozzle warmup
G28 ; home all axis
G1 Z50 F240
G1 X2 Y10 F3000
M104 S220 ; set final nozzle temp
M190 S55 ; wait for bed temp to stabilize
M109 S220 ; wait for nozzle temp to stabilize
G1 Z0.28 F240
G92 E0
G1 Y140 E10 F1500 ; prime the nozzle
G1 X2.3 F5000
G92 E0
G1 Y10 E10 F1200 ; prime the nozzle
G92 E0
G90
G21
M83 ; use relative distances for extrusion
; Filament gcode
M106 S0
;LAYER_CHANGE
;Z:0.2
;HEIGHT:0.2
;BEFORE_LAYER_CHANGE
;0.2
G92 E0

G1 E-4 F3600
M73 P0 R269
;_SET_FAN_SPEED_CHANGING_LAYER
M204 S500
; printing object PRINT_SNAP_CLIPS.stl id:15 copy 0
G1 Z.6 F30000
G1 X125.25 Y85.35
G1 Z.6
G1 Z.2
G1 E4 F2400
;TYPE:Inner wall
;WIDTH:0.4
G1 F3000
G1 X125.25 Y79.55 E.16877
G1 X143.75 Y79.55 E.5383
G1 X143.75 Y85.35 E.16877
G1 X125.29 Y85.35 E.53714
G1 X124.85 Y85.75 F30000
;TYPE:Outer wall
G1 F3000
G1 X124.85 Y79.15 E.19204
G1 X144.15 Y79.15 E.56158
G1 X144.15 Y85.75 E.19204
G1 X124.89 Y85.75 E.56042
G1 E-2.8 F3600
;WIPE_START
G1 F3000
G1 X124.884 Y84.75 E-1.2
;WIPE_END
G1 Z.6 F30000
G1 X143.643 Y80.386 Z.6
G1 Z.2
G1 E4 F2400
;TYPE:Bottom surface
;WIDTH:0.403137
G1 F6300
G1 X143.075 Y79.818 E.02357
G1 X142.566 Y79.818 E.01495
G1 X143.482 Y80.734 E.03805
G1 X143.482 Y81.244 E.01495
G1 X142.056 Y79.818 E.05919
G1 X141.547 Y79.818 E.01495
G1 X143.482 Y81.753 E.08034
G1 X143.482 Y82.263 E.01495
G1 X141.037 Y79.818 E.10149
G1 X140.528 Y79.818 E.01495
G1 X143.482 Y82.772 E.12264
G1 X143.482 Y83.281 E.01495
G1 X140.019 Y79.818 E.14378
G1 X139.509 Y79.818 E.01495
G1 X143.482 Y83.791 E.16493
G1 X143.482 Y84.3 E.01495
G1 X139 Y79.818 E.18608
G1 X138.49 Y79.818 E.01495
G1 X143.482 Y84.81 E.20722
G1 X143.482 Y85.082 E.008
G1 X143.245 Y85.082 E.00696
G1 X137.981 Y79.818 E.21853
G1 X137.471 Y79.818 E.01495
G1 X142.736 Y85.082 E.21853
G1 X142.226 Y85.082 E.01495
G1 X136.962 Y79.818 E.21853
G1 X136.453 Y79.818 E.01495
G1 X141.717 Y85.082 E.21853
G1 X141.208 Y85.082 E.01495
G1 X135.943 Y79.818 E.21853
G1 X135.434 Y79.818 E.01495
G1 X140.698 Y85.082 E.21853
G1 X140.189 Y85.082 E.01495
G1 X134.924 Y79.818 E.21853
G1 X134.415 Y79.818 E.01495
G1 X139.679 Y85.082 E.21853
G1 X139.17 Y85.082 E.01495
G1 X133.905 Y79.818 E.21853
G1 X133.396 Y79.818 E.01495
G1 X138.66 Y85.082 E.21853
G1 X138.151 Y85.082 E.01495
G1 X132.887 Y79.818 E.21853
G1 X132.377 Y79.818 E.01495
G1 X137.642 Y85.082 E.21853
G1 X137.132 Y85.082 E.01495
G1 X131.868 Y79.818 E.21853
G1 X131.358 Y79.818 E.01495
G1 X136.623 Y85.082 E.21853
G1 X136.113 Y85.082 E.01495
G1 X130.849 Y79.818 E.21853
G1 X130.339 Y79.818 E.01495
G1 X135.604 Y85.082 E.21853
G1 X135.094 Y85.082 E.01495
G1 X129.83 Y79.818 E.21853
G1 X129.321 Y79.818 E.01495
G1 X134.585 Y85.082 E.21853
G1 X134.076 Y85.082 E.01495
G1 X128.811 Y79.818 E.21853
G1 X128.302 Y79.818 E.01495
G1 X133.566 Y85.082 E.21853
G1 X133.057 Y85.082 E.01495
G1 X127.792 Y79.818 E.21853
G1 X127.283 Y79.818 E.01495
G1 X132.547 Y85.082 E.21853
G1 X132.038 Y85.082 E.01495
G1 X126.774 Y79.818 E.21853
G1 X126.264 Y79.818 E.01495
G1 X131.528 Y85.082 E.21853
G1 X131.019 Y85.082 E.01495
G1 X125.755 Y79.818 E.21853
G1 X125.518 Y79.818 E.00695
G1 X125.518 Y80.09 E.008
G1 X130.51 Y85.082 E.20722
G1 X130 Y85.082 E.01495
G1 X125.518 Y80.6 E.18607
G1 X125.518 Y81.109 E.01495
G1 X129.491 Y85.082 E.16493
G1 X128.981 Y85.082 E.01495
G1 X125.518 Y81.619 E.14378
G1 X125.518 Y82.128 E.01495
G1 X128.472 Y85.082 E.12263
G1 X127.963 Y85.082 E.01495
G1 X125.518 Y82.637 E.10148
G1 X125.518 Y83.147 E.01495
G1 X127.453 Y85.082 E.08034
G1 X126.944 Y85.082 E.01495
G1 X125.518 Y83.656 E.05919
G1 X125.518 Y84.166 E.01495
G1 X126.434 Y85.082 E.03804
G1 X125.925 Y85.082 E.01495
G1 X125.357 Y84.514 E.02357
G1 E-3.42857 F3600
;WIPE_START
G1 F6300
G1 X125.925 Y85.082 E-.45878
G1 X126.122 Y85.082 E-.11265
;WIPE_END
G1 Z.6 F30000
G1 X125.25 Y96.65 Z.6
G1 Z.2
G1 E4 F2400
;TYPE:Inner wall
;WIDTH:0.4
G1 F3000
G1 X125.25 Y90.85 E.16877
G1 X143.75 Y90.85 E.5383
G1 X143.75 Y96.65 E.16877
G1 X125.29 Y96.65 E.53714
G1 X124.85 Y97.05 F30000
;TYPE:Outer wall
G1 F3000
G1 X124.85 Y90.45 E.19204
G1 X144.15 Y90.45 E.56158
G1 X144.15 Y97.05 E.19204
G1 X124.89 Y97.05 E.56042
G1 E-2.8 F3600
;WIPE_START
G1 F3000
G1 X124.884 Y96.05 E-1.2
;WIPE_END
G1 Z.6 F30000
G1 X143.643 Y91.686 Z.6
G1 Z.2
G1 E4 F2400
;TYPE:Bottom surface
;WIDTH:0.403137
G1 F6300
G1 X143.075 Y91.118 E.02357
G1 X142.566 Y91.118 E.01495
G1 X143.482 Y92.034 E.03805
G1 X143.482 Y92.544 E.01495
G1 X142.056 Y91.118 E.05919
G1 X141.547 Y91.118 E.01495
G1 X143.482 Y93.053 E.08034
G1 X143.482 Y93.563 E.01495
G1 X141.037 Y91.118 E.10149
G1 X140.528 Y91.118 E.01495
G1 X143.482 Y94.072 E.12264
G1 X143.482 Y94.581 E.01495
G1 X140.019 Y91.118 E.14378
G1 X139.509 Y91.118 E.01495
G1 X143.482 Y95.091 E.16493
G1 X143.482 Y95.6 E.01495
G1 X139 Y91.118 E.18608
G1 X138.49 Y91.118 E.01495
G1 X143.482 Y96.11 E.20722
G1 X143.482 Y96.382 E.008
G1 X143.245 Y96.382 E.00696
G1 X137.981 Y91.118 E.21853
G1 X137.471 Y91.118 E.01495
G1 X142.736 Y96.382 E.21853
G1 X142.226 Y96.382 E.01495
G1 X136.962 Y91.118 E.21853
G1 X136.453 Y91.118 E.01495
G1 X141.717 Y96.382 E.21853
G1 X141.208 Y96.382 E.01495
G1 X135.943 Y91.118 E.21853
G1 X135.434 Y91.118 E.01495
G1 X140.698 Y96.382 E.21853
G1 X140.189 Y96.382 E.01495
G1 X134.924 Y91.118 E.21853
G1 X134.415 Y91.118 E.01495
G1 X139.679 Y96.382 E.21853
G1 X139.17 Y96.382 E.01495
G1 X133.905 Y91.118 E.21853
G1 X133.396 Y91.118 E.01495
G1 X138.66 Y96.382 E.21853
G1 X138.151 Y96.382 E.01495
G1 X132.887 Y91.118 E.21853
G1 X132.377 Y91.118 E.01495
G1 X137.642 Y96.382 E.21853
G1 X137.132 Y96.382 E.01495
G1 X131.868 Y91.118 E.21853
G1 X131.358 Y91.118 E.01495
G1 X136.623 Y96.382 E.21853
G1 X136.113 Y96.382 E.01495
G1 X130.849 Y91.118 E.21853
G1 X130.339 Y91.118 E.01495
G1 X135.604 Y96.382 E.21853
G1 X135.094 Y96.382 E.01495
G1 X129.83 Y91.118 E.21853
G1 X129.321 Y91.118 E.01495
G1 X134.585 Y96.382 E.21853
G1 X134.076 Y96.382 E.01495
G1 X128.811 Y91.118 E.21853
G1 X128.302 Y91.118 E.01495
G1 X133.566 Y96.382 E.21853
G1 X133.057 Y96.382 E.01495
G1 X127.792 Y91.118 E.21853
G1 X127.283 Y91.118 E.01495
G1 X132.547 Y96.382 E.21853
G1 X132.038 Y96.382 E.01495
G1 X126.774 Y91.118 E.21853
G1 X126.264 Y91.118 E.01495
G1 X131.528 Y96.382 E.21853
G1 X131.019 Y96.382 E.01495
G1 X125.755 Y91.118 E.21853
G1 X125.518 Y91.118 E.00695
G1 X125.518 Y91.39 E.008
G1 X130.51 Y96.382 E.20722
G1 X130 Y96.382 E.01495
G1 X125.518 Y91.9 E.18607
G1 X125.518 Y92.409 E.01495
G1 X129.491 Y96.382 E.16493
G1 X128.981 Y96.382 E.01495
G1 X125.518 Y92.919 E.14378
G1 X125.518 Y93.428 E.01495
G1 X128.472 Y96.382 E.12263
G1 X127.963 Y96.382 E.01495
G1 X125.518 Y93.937 E.10148
G1 X125.518 Y94.447 E.01495
G1 X127.453 Y96.382 E.08034
G1 X126.944 Y96.382 E.01495
G1 X125.518 Y94.956 E.05919
G1 X125.518 Y95.466 E.01495
G1 X126.434 Y96.382 E.03804
G1 X125.925 Y96.382 E.01495
G1 X125.357 Y95.814 E.02357
G1 E-3.42857 F3600
;WIPE_START
G1 F6300
G1 X125.925 Y96.382 E-.45879
G1 X126.122 Y96.382 E-.11264
;WIPE_END
G1 Z.6 F30000
G1 X125.25 Y107.95 Z.6
G1 Z.2
G1 E4 F2400
;TYPE:Inner wall
;WIDTH:0.4
G1 F3000
G1 X125.25 Y102.15 E.16877
G1 X143.75 Y102.15 E.5383
G1 X143.75 Y107.95 E.16877
G1 X125.29 Y107.95 E.53714
G1 X124.85 Y108.35 F30000
;TYPE:Outer wall
G1 F3000
G1 X124.85 Y101.75 E.19204
G1 X144.15 Y101.75 E.56158
G1 X144.15 Y108.35 E.19204
G1 X124.89 Y108.35 E.56042
G1 E-2.8 F3600
;WIPE_START
G1 F3000
G1 X124.884 Y107.35 E-1.2
;WIPE_END
G1 Z.6 F30000
G1 X143.643 Y102.986 Z.6
G1 Z.2
G1 E4 F2400
;TYPE:Bottom surface
;WIDTH:0.403137
G1 F6300
G1 X143.075 Y102.418 E.02357
G1 X142.566 Y102.418 E.01495
G1 X143.482 Y103.334 E.03805
G1 X143.482 Y103.844 E.01495
G1 X142.056 Y102.418 E.05919
G1 X141.547 Y102.418 E.01495
G1 X143.482 Y104.353 E.08034
G1 X143.482 Y104.863 E.01495
G1 X141.037 Y102.418 E.10149
G1 X140.528 Y102.418 E.01495
G1 X143.482 Y105.372 E.12264
G1 X143.482 Y105.881 E.01495
G1 X140.019 Y102.418 E.14378
G1 X139.509 Y102.418 E.01495
G1 X143.482 Y106.391 E.16493
G1 X143.482 Y106.9 E.01495
G1 X139 Y102.418 E.18608
G1 X138.49 Y102.418 E.01495
G1 X143.482 Y107.41 E.20722
G1 X143.482 Y107.682 E.008
G1 X143.245 Y107.682 E.00696
G1 X137.981 Y102.418 E.21853
G1 X137.471 Y102.418 E.01495
G1 X142.736 Y107.682 E.21853
G1 X142.226 Y107.682 E.01495
G1 X136.962 Y102.418 E.21853
G1 X136.453 Y102.418 E.01495
G1 X141.717 Y107.682 E.21853
G1 X141.208 Y107.682 E.01495
G1 X135.943 Y102.418 E.21853
G1 X135.434 Y102.418 E.01495
G1 X140.698 Y107.682 E.21853
G1 X140.189 Y107.682 E.01495
G1 X134.924 Y102.418 E.21853
G1 X134.415 Y102.418 E.01495
G1 X139.679 Y107.682 E.21853
G1 X139.17 Y107.682 E.01495
G1 X133.905 Y102.418 E.21853
G1 X133.396 Y102.418 E.01495
G1 X138.66 Y107.682 E.21853
G1 X138.151 Y107.682 E.01495
G1 X132.887 Y102.418 E.21853
G1 X132.377 Y102.418 E.01495
G1 X137.642 Y107.682 E.21853
G1 X137.132 Y107.682 E.01495
G1 X131.868 Y102.418 E.21853
G1 X131.358 Y102.418 E.01495
G1 X136.623 Y107.682 E.21853
G1 X136.113 Y107.682 E.01495
G1 X130.849 Y102.418 E.21853
G1 X130.339 Y102.418 E.01495
G1 X135.604 Y107.682 E.21853
G1 X135.094 Y107.682 E.01495
G1 X129.83 Y102.418 E.21853
G1 X129.321 Y102.418 E.01495
G1 X134.585 Y107.682 E.21853
G1 X134.076 Y107.682 E.01495
G1 X128.811 Y102.418 E.21853
G1 X128.302 Y102.418 E.01495
G1 X133.566 Y107.682 E.21853
G1 X133.057 Y107.682 E.01495
G1 X127.792 Y102.418 E.21853
G1 X127.283 Y102.418 E.01495
G1 X132.547 Y107.682 E.21853
G1 X132.038 Y107.682 E.01495
G1 X126.774 Y102.418 E.21853
G1 X126.264 Y102.418 E.01495
G1 X131.528 Y107.682 E.21853
G1 X131.019 Y107.682 E.01495
G1 X125.755 Y102.418 E.21853
G1 X125.518 Y102.418 E.00695
G1 X125.518 Y102.69 E.008
G1 X130.51 Y107.682 E.20722
G1 X130 Y107.682 E.01495
G1 X125.518 Y103.2 E.18607
G1 X125.518 Y103.709 E.01495
G1 X129.491 Y107.682 E.16493
G1 X128.981 Y107.682 E.01495
G1 X125.518 Y104.219 E.14378
G1 X125.518 Y104.728 E.01495
G1 X128.472 Y107.682 E.12263
G1 X127.963 Y107.682 E.01495
G1 X125.518 Y105.237 E.10148
G1 X125.518 Y105.747 E.01495
G1 X127.453 Y107.682 E.08034
G1 X126.944 Y107.682 E.01495
G1 X125.518 Y106.256 E.05919
G1 X125.518 Y106.766 E.01495
G1 X126.434 Y107.682 E.03804
G1 X125.925 Y107.682 E.01495
G1 X125.357 Y107.114 E.02357
G1 E-3.42857 F3600
;WIPE_START
G1 F6300
G1 X125.925 Y107.682 E-.45878
G1 X126.122 Y107.682 E-.11264
;WIPE_END
G1 Z.6 F30000
G1 X125.25 Y113.45 Z.6
G1 Z.2
G1 E4 F2400
;TYPE:Inner wall
;WIDTH:0.4
G1 F3000
G1 X143.75 Y113.45 E.5383
G1 X143.75 Y119.25 E.16877
G1 X125.25 Y119.25 E.5383
G1 X125.25 Y113.49 E.1676
G1 X124.85 Y113.05 F30000
;TYPE:Outer wall
G1 F3000
G1 X144.15 Y113.05 E.56158
G1 X144.15 Y119.65 E.19204
G1 X124.85 Y119.65 E.56158
G1 X124.85 Y113.09 E.19088
G1 E-2.8 F3600
;WIPE_START
G1 F3000
G1 X125.85 Y113.088 E-1.2
;WIPE_END
G1 Z.6 F30000
G1 X143.643 Y114.286 Z.6
G1 Z.2
G1 E4 F2400
;TYPE:Bottom surface
;WIDTH:0.403137
G1 F6300
G1 X143.075 Y113.718 E.02357
G1 X142.566 Y113.718 E.01495
G1 X143.482 Y114.634 E.03805
G1 X143.482 Y115.144 E.01495
G1 X142.056 Y113.718 E.05919
G1 X141.547 Y113.718 E.01495
G1 X143.482 Y115.653 E.08034
G1 X143.482 Y116.163 E.01495
G1 X141.037 Y113.718 E.10149
G1 X140.528 Y113.718 E.01495
G1 X143.482 Y116.672 E.12264
G1 X143.482 Y117.181 E.01495
G1 X140.019 Y113.718 E.14378
G1 X139.509 Y113.718 E.01495
G1 X143.482 Y117.691 E.16493
G1 X143.482 Y118.2 E.01495
G1 X139 Y113.718 E.18608
G1 X138.49 Y113.718 E.01495
G1 X143.482 Y118.71 E.20722
G1 X143.482 Y118.982 E.008
G1 X143.245 Y118.982 E.00696
G1 X137.981 Y113.718 E.21853
G1 X137.471 Y113.718 E.01495
G1 X142.736 Y118.982 E.21853
G1 X142.226 Y118.982 E.01495
G1 X136.962 Y113.718 E.21853
G1 X136.453 Y113.718 E.01495
G1 X141.717 Y118.982 E.21853
G1 X141.208 Y118.982 E.01495
G1 X135.943 Y113.718 E.21853
G1 X135.434 Y113.718 E.01495
G1 X140.698 Y118.982 E.21853
G1 X140.189 Y118.982 E.01495
G1 X134.924 Y113.718 E.21853
G1 X134.415 Y113.718 E.01495
G1 X139.679 Y118.982 E.21853
G1 X139.17 Y118.982 E.01495
G1 X133.905 Y113.718 E.21853
G1 X133.396 Y113.718 E.01495
G1 X138.66 Y118.982 E.21853
G1 X138.151 Y118.982 E.01495
G1 X132.887 Y113.718 E.21853
G1 X132.377 Y113.718 E.01495
G1 X137.642 Y118.982 E.21853
G1 X137.132 Y118.982 E.01495
G1 X131.868 Y113.718 E.21853
G1 X131.358 Y113.718 E.01495
G1 X136.623 Y118.982 E.21853
G1 X136.113 Y118.982 E.01495
G1 X130.849 Y113.718 E.21853
G1 X130.339 Y113.718 E.01495
G1 X135.604 Y118.982 E.21853
G1 X135.094 Y118.982 E.01495
G1 X129.83 Y113.718 E.21853
G1 X129.321 Y113.718 E.01495
G1 X134.585 Y118.982 E.21853
G1 X134.076 Y118.982 E.01495
G1 X128.811 Y113.718 E.21853
G1 X128.302 Y113.718 E.01495
G1 X133.566 Y118.982 E.21853
G1 X133.057 Y118.982 E.01495
G1 X127.792 Y113.718 E.21853
G1 X127.283 Y113.718 E.01495
G1 X132.547 Y118.982 E.21853
G1 X132.038 Y118.982 E.01495
G1 X126.774 Y113.718 E.21853
G1 X126.264 Y113.718 E.01495
G1 X131.528 Y118.982 E.21853
G1 X131.019 Y118.982 E.01495
G1 X125.755 Y113.718 E.21853
G1 X125.518 Y113.718 E.00695
G1 X125.518 Y113.99 E.008
G1 X130.51 Y118.982 E.20722
G1 X130 Y118.982 E.01495
G1 X125.518 Y114.5 E.18607
G1 X125.518 Y115.009 E.01495
G1 X129.491 Y118.982 E.16493
G1 X128.981 Y118.982 E.01495
G1 X125.518 Y115.519 E.14378
G1 X125.518 Y116.028 E.01495
G1 X128.472 Y118.982 E.12263
G1 X127.963 Y118.982 E.01495
G1 X125.518 Y116.537 E.10148
G1 X125.518 Y117.047 E.01495
G1 X127.453 Y118.982 E.08034
G1 X126.944 Y118.982 E.01495
G1 X125.518 Y117.556 E.05919
G1 X125.518 Y118.066 E.01495
G1 X126.434 Y118.982 E.03804
G1 X125.925 Y118.982 E.01495
G1 X125.357 Y118.414 E.02357
G1 E-3.42857 F3600
;WIPE_START
G1 F6300
G1 X125.925 Y118.982 E-.45878
G1 X126.122 Y118.982 E-.11265
;WIPE_END
G1 Z.6 F30000
G1 X120.75 Y113.45 Z.6
G1 Z.2
G1 E4 F2400
;TYPE:Inner wall
;WIDTH:0.4
G1 F3000
G1 X120.75 Y119.25 E.16877
G1 X102.25 Y119.25 E.5383
G1 X102.25 Y113.45 E.16877
G1 X120.71 Y113.45 E.53714
G1 X121.15 Y113.05 F30000
;TYPE:Outer wall
G1 F3000
G1 X121.15 Y119.65 E.19204
G1 X101.85 Y119.65 E.56158
G1 X101.85 Y113.05 E.19204
G1 X121.11 Y113.05 E.56042
G1 X120.643 Y114.286 F30000
M73 P0 R268
;TYPE:Bottom surface
;WIDTH:0.403137
G1 F6300
G1 X120.075 Y113.718 E.02357
G1 X119.566 Y113.718 E.01495
G1 X120.482 Y114.634 E.03805
G1 X120.482 Y115.144 E.01495
G1 X119.056 Y113.718 E.05919
G1 X118.547 Y113.718 E.01495
G1 X120.482 Y115.653 E.08034
G1 X120.482 Y116.163 E.01495
G1 X118.037 Y113.718 E.10149
G1 X117.528 Y113.718 E.01495
G1 X120.482 Y116.672 E.12264
G1 X120.482 Y117.181 E.01495
G1 X117.019 Y113.718 E.14378
G1 X116.509 Y113.718 E.01495
G1 X120.482 Y117.691 E.16493
G1 X120.482 Y118.2 E.01495
G1 X116 Y113.718 E.18608
G1 X115.49 Y113.718 E.01495
G1 X120.482 Y118.71 E.20722
G1 X120.482 Y118.982 E.008
G1 X120.245 Y118.982 E.00696
G1 X114.981 Y113.718 E.21853
G1 X114.471 Y113.718 E.01495
G1 X119.736 Y118.982 E.21853
G1 X119.226 Y118.982 E.01495
G1 X113.962 Y113.718 E.21853
G1 X113.453 Y113.718 E.01495
G1 X118.717 Y118.982 E.21853
G1 X118.208 Y118.982 E.01495
G1 X112.943 Y113.718 E.21853
G1 X112.434 Y113.718 E.01495
G1 X117.698 Y118.982 E.21853
G1 X117.189 Y118.982 E.01495
G1 X111.924 Y113.718 E.21853
G1 X111.415 Y113.718 E.01495
G1 X116.679 Y118.982 E.21853
G1 X116.17 Y118.982 E.01495
G1 X110.905 Y113.718 E.21853
G1 X110.396 Y113.718 E.01495
G1 X115.66 Y118.982 E.21853
G1 X115.151 Y118.982 E.01495
G1 X109.887 Y113.718 E.21853
G1 X109.377 Y113.718 E.01495
G1 X114.642 Y118.982 E.21853
G1 X114.132 Y118.982 E.01495
G1 X108.868 Y113.718 E.21853
