; HEADER_BLOCK_START
; generated by OrcaSlicer 2.3.1 on 2026-02-10 at 12:28:50
; total layer number: 50
; filament_density: 1.24
; filament_diameter: 1.75
; max_z_height: 10.00
; HEADER_BLOCK_END

; external perimeters extrusion width = 0.40mm
; perimeters extrusion width = 0.40mm
; infill extrusion width = 0.40mm
; solid infill extrusion width = 0.40mm
; top infill extrusion width = 0.40mm
; first layer extrusion width = 0.40mm

; EXECUTABLE_BLOCK_START
M73 P0 R128
M201 X500 Y500 Z100 E5000
M203 X500 Y500 Z10 E60
M204 P500 R1000 T500
M205 X8.00 Y8.00 Z0.40 E5.00 ; sets the jerk limits, mm/sec
;TYPE:Custom
G90 ; use absolute coordinates
M83 ; extruder relative mode
M140 S55 ; set final bed temp
M104 S150 ; set temporary nozzle temp to prevent oozing during homing
G4 S10 ; allow partial nozzle warmup
G28 ; home all axis
G1 Z50 F240
G1 X2 Y10 F3000
M104 S220 ; set final nozzle temp
M190 S55 ; wait for bed temp to stabilize
M109 S220 ; wait for nozzle temp to stabilize
G1 Z0.28 F240
G92 E0
G1 Y140 E10 F1500 ; prime the nozzle
G1 X2.3 F5000
G92 E0
G1 Y10 E10 F1200 ; prime the nozzle
G92 E0
G90
G21
M83 ; use relative distances for extrusion
; Filament gcode
M106 S0
;LAYER_CHANGE
;Z:0.2
;HEIGHT:0.2
;BEFORE_LAYER_CHANGE
;0.2
G92 E0

G1 E-4 F3600
;_SET_FAN_SPEED_CHANGING_LAYER
M204 S500
; printing object PRINT_HEPA.stl id:15 copy 0
G1 Z.6 F30000
G1 X52.053 Y99.003
G1 Z.6
G1 Z.2
G1 E4 F2400
;TYPE:Inner wall
;WIDTH:0.4
G1 F3000
G1 X52.268 Y99.425 E.01379
G1 X52.359 Y100 E.01693
G1 X52.268 Y100.575 E.01693
G1 X52.004 Y101.093 E.01693
G1 X51.593 Y101.504 E.01693
G1 X51.075 Y101.768 E.01693
G1 X50.5 Y101.859 E.01693
G1 X49.925 Y101.768 E.01693
G1 X49.407 Y101.504 E.01693
G1 X49.311 Y101.408 E.00396
G1 X48.996 Y101.093 E.01297
G1 X48.732 Y100.575 E.01693
G1 X48.641 Y100 E.01693
G1 X48.732 Y99.425 E.01693
G1 X48.996 Y98.907 E.01693
G1 X49.407 Y98.496 E.01693
G1 X49.925 Y98.232 E.01693
G1 X50.366 Y98.162 E.01297
G1 X50.5 Y98.141 E.00396
G1 X51.075 Y98.232 E.01693
G1 X51.593 Y98.496 E.01693
G1 X52.004 Y98.907 E.01693
G1 X52.035 Y98.968 E.00197
G1 X51.697 Y99.185 F30000
;TYPE:Outer wall
G1 F3000
G1 X51.71 Y99.21 E.00082
G1 X51.883 Y99.551 E.01113
G1 X51.954 Y100 E.01324
G1 X51.883 Y100.449 E.01324
G1 X51.677 Y100.855 E.01324
G1 X51.355 Y101.177 E.01324
G1 X50.949 Y101.383 E.01324
G1 X50.5 Y101.454 E.01324
G1 X50.051 Y101.383 E.01324
G1 X49.645 Y101.177 E.01324
G1 X49.323 Y100.855 E.01324
G1 X49.117 Y100.449 E.01324
G1 X49.046 Y100 E.01324
G1 X49.117 Y99.551 E.01324
G1 X49.323 Y99.145 E.01324
G1 X49.645 Y98.823 E.01324
G1 X50.051 Y98.617 E.01324
G1 X50.428 Y98.557 E.01113
G1 X50.5 Y98.546 E.00211
G1 X50.949 Y98.617 E.01324
G1 X51.355 Y98.823 E.01324
G1 X51.677 Y99.145 E.01324
G1 X51.679 Y99.149 E.00013
G1 E-2.8 F3600
;WIPE_START
G1 F3000
G1 X51.71 Y99.21 E-.08178
G1 X51.883 Y99.551 E-.45886
G1 X51.954 Y100 E-.54603
G1 X51.94 Y100.093 E-.11333
;WIPE_END
G1 Z.6 F30000
G1 X64.75 Y160.25 Z.6
G1 Z.2
G1 E4 F2400
;TYPE:Inner wall
G1 F3000
G1 X36.25 Y160.25 E.82928
G1 X36.25 Y39.75 E3.50624
G1 X64.75 Y39.75 E.82928
G1 X64.75 Y160.21 E3.50508
G1 X65.15 Y160.65 F30000
;TYPE:Outer wall
G1 F3000
G1 X35.85 Y160.65 E.85256
G1 X35.85 Y39.35 E3.52952
G1 X65.15 Y39.35 E.85256
G1 X65.15 Y160.61 E3.52836
G1 E-2.8 F3600
M73 P0 R127
;WIPE_START
G1 F3000
G1 X64.15 Y160.611 E-1.2
;WIPE_END
G1 Z.6 F30000
G1 X64.643 Y40.58 Z.6
G1 Z.2
G1 E4 F2400
;TYPE:Bottom surface
;WIDTH:0.400424
G1 F6300
G1 X64.081 Y40.018 E.02316
G1 X63.575 Y40.018 E.01473
G1 X64.482 Y40.925 E.03737
G1 X64.482 Y41.43 E.01473
G1 X63.07 Y40.018 E.0582
G1 X62.564 Y40.018 E.01473
G1 X64.482 Y41.936 E.07903
G1 X64.482 Y42.442 E.01473
G1 X62.058 Y40.018 E.09985
G1 X61.553 Y40.018 E.01473
G1 X64.482 Y42.947 E.12068
G1 X64.482 Y43.453 E.01473
G1 X61.047 Y40.018 E.14151
G1 X60.542 Y40.018 E.01473
G1 X64.482 Y43.958 E.16234
G1 X64.482 Y44.464 E.01473
G1 X60.036 Y40.018 E.18317
G1 X59.531 Y40.018 E.01473
G1 X64.482 Y44.969 E.204
G1 X64.482 Y45.475 E.01473
G1 X59.025 Y40.018 E.22483
G1 X58.519 Y40.018 E.01473
G1 X64.482 Y45.981 E.24566
G1 X64.482 Y46.486 E.01473
G1 X58.014 Y40.018 E.26649
G1 X57.508 Y40.018 E.01473
G1 X64.482 Y46.992 E.28732
G1 X64.482 Y47.497 E.01473
G1 X57.003 Y40.018 E.30815
G1 X56.497 Y40.018 E.01473
G1 X64.482 Y48.003 E.32898
G1 X64.482 Y48.509 E.01473
G1 X55.991 Y40.018 E.34981
G1 X55.486 Y40.018 E.01473
G1 X64.482 Y49.014 E.37064
G1 X64.482 Y49.52 E.01473
G1 X54.98 Y40.018 E.39147
G1 X54.475 Y40.018 E.01473
G1 X64.482 Y50.025 E.4123
G1 X64.482 Y50.531 E.01473
G1 X53.969 Y40.018 E.43313
G1 X53.464 Y40.018 E.01473
G1 X64.482 Y51.037 E.45396
G1 X64.482 Y51.542 E.01473
G1 X52.958 Y40.018 E.47479
G1 X52.452 Y40.018 E.01473
G1 X64.482 Y52.048 E.49562
G1 X64.482 Y52.553 E.01473
G1 X51.947 Y40.018 E.51645
G1 X51.441 Y40.018 E.01473
G1 X64.482 Y53.059 E.53728
G1 X64.482 Y53.564 E.01473
G1 X50.936 Y40.018 E.55811
G1 X50.43 Y40.018 E.01473
G1 X64.482 Y54.07 E.57894
G1 X64.482 Y54.576 E.01473
G1 X49.924 Y40.018 E.59977
G1 X49.419 Y40.018 E.01473
G1 X64.482 Y55.081 E.6206
G1 X64.482 Y55.587 E.01473
G1 X48.913 Y40.018 E.64143
G1 X48.408 Y40.018 E.01473
G1 X64.482 Y56.092 E.66226
G1 X64.482 Y56.598 E.01473
G1 X47.902 Y40.018 E.68308
G1 X47.396 Y40.018 E.01473
G1 X64.482 Y57.104 E.70391
G1 X64.482 Y57.609 E.01473
G1 X46.891 Y40.018 E.72474
G1 X46.385 Y40.018 E.01473
G1 X64.482 Y58.115 E.74557
G1 X64.482 Y58.62 E.01473
G1 X45.88 Y40.018 E.7664
G1 X45.374 Y40.018 E.01473
G1 X64.482 Y59.126 E.78723
G1 X64.482 Y59.631 E.01473
G1 X44.869 Y40.018 E.80806
G1 X44.363 Y40.018 E.01473
G1 X64.482 Y60.137 E.82889
G1 X64.482 Y60.643 E.01473
G1 X43.857 Y40.018 E.84972
G1 X43.352 Y40.018 E.01473
G1 X64.482 Y61.148 E.87055
G1 X64.482 Y61.654 E.01473
G1 X42.846 Y40.018 E.89138
G1 X42.341 Y40.018 E.01473
G1 X64.482 Y62.159 E.91221
G1 X64.482 Y62.665 E.01473
G1 X41.835 Y40.018 E.93304
G1 X41.329 Y40.018 E.01473
G1 X64.482 Y63.171 E.95387
G1 X64.482 Y63.676 E.01473
G1 X40.824 Y40.018 E.9747
G1 X40.318 Y40.018 E.01473
G1 X64.482 Y64.182 E.99553
G1 X64.482 Y64.687 E.01473
G1 X39.813 Y40.018 E1.01636
G1 X39.307 Y40.018 E.01473
G1 X64.482 Y65.193 E1.03719
G1 X64.482 Y65.699 E.01473
G1 X38.801 Y40.018 E1.05802
G1 X38.296 Y40.018 E.01473
G1 X64.482 Y66.204 E1.07885
G1 X64.482 Y66.71 E.01473
G1 X37.79 Y40.018 E1.09968
G1 X37.285 Y40.018 E.01473
G1 X64.482 Y67.215 E1.12051
G1 X64.482 Y67.721 E.01473
G1 X36.779 Y40.018 E1.14134
G1 X36.518 Y40.018 E.00761
G1 X36.518 Y40.262 E.00712
G1 X64.482 Y68.226 E1.1521
G1 X64.482 Y68.732 E.01473
G1 X36.518 Y40.768 E1.1521
G1 X36.518 Y41.273 E.01473
G1 X64.482 Y69.238 E1.1521
G1 X64.482 Y69.743 E.01473
G1 X36.518 Y41.779 E1.1521
G1 X36.518 Y42.284 E.01473
M73 P1 R127
G1 X64.482 Y70.249 E1.1521
G1 X64.482 Y70.754 E.01473
G1 X36.518 Y42.79 E1.1521
G1 X36.518 Y43.296 E.01473
G1 X64.482 Y71.26 E1.1521
G1 X64.482 Y71.766 E.01473
G1 X36.518 Y43.801 E1.1521
G1 X36.518 Y44.307 E.01473
G1 X64.482 Y72.271 E1.1521
G1 X64.482 Y72.777 E.01473
G1 X36.518 Y44.812 E1.1521
G1 X36.518 Y45.318 E.01473
G1 X64.482 Y73.282 E1.1521
G1 X64.482 Y73.788 E.01473
G1 X36.518 Y45.824 E1.1521
G1 X36.518 Y46.329 E.01473
G1 X64.482 Y74.294 E1.1521
G1 X64.482 Y74.799 E.01473
G1 X36.518 Y46.835 E1.1521
G1 X36.518 Y47.34 E.01473
G1 X64.482 Y75.305 E1.1521
G1 X64.482 Y75.81 E.01473
G1 X36.518 Y47.846 E1.1521
G1 X36.518 Y48.351 E.01473
G1 X64.482 Y76.316 E1.1521
G1 X64.482 Y76.821 E.01473
G1 X36.518 Y48.857 E1.1521
G1 X36.518 Y49.363 E.01473
G1 X64.482 Y77.327 E1.1521
G1 X64.482 Y77.833 E.01473
G1 X36.518 Y49.868 E1.1521
G1 X36.518 Y50.374 E.01473
G1 X64.482 Y78.338 E1.1521
G1 X64.482 Y78.844 E.01473
G1 X36.518 Y50.879 E1.1521
G1 X36.518 Y51.385 E.01473
G1 X64.482 Y79.349 E1.1521
G1 X64.482 Y79.855 E.01473
G1 X36.518 Y51.891 E1.1521
G1 X36.518 Y52.396 E.01473
G1 X64.482 Y80.361 E1.1521
G1 X64.482 Y80.866 E.01473
G1 X36.518 Y52.902 E1.1521
G1 X36.518 Y53.407 E.01473
G1 X64.482 Y81.372 E1.1521
G1 X64.482 Y81.877 E.01473
G1 X36.518 Y53.913 E1.1521
G1 X36.518 Y54.418 E.01473
G1 X64.482 Y82.383 E1.1521
G1 X64.482 Y82.888 E.01473
G1 X36.518 Y54.924 E1.1521
G1 X36.518 Y55.43 E.01473
G1 X64.482 Y83.394 E1.1521
G1 X64.482 Y83.9 E.01473
G1 X36.518 Y55.935 E1.1521
G1 X36.518 Y56.441 E.01473
G1 X64.482 Y84.405 E1.1521
G1 X64.482 Y84.911 E.01473
G1 X36.518 Y56.946 E1.1521
G1 X36.518 Y57.452 E.01473
G1 X64.482 Y85.416 E1.1521
G1 X64.482 Y85.922 E.01473
G1 X36.518 Y57.958 E1.1521
G1 X36.518 Y58.463 E.01473
G1 X64.482 Y86.428 E1.1521
G1 X64.482 Y86.933 E.01473
G1 X36.518 Y58.969 E1.1521
G1 X36.518 Y59.474 E.01473
G1 X64.482 Y87.439 E1.1521
G1 X64.482 Y87.944 E.01473
G1 X36.518 Y59.98 E1.1521
G1 X36.518 Y60.486 E.01473
G1 X64.482 Y88.45 E1.1521
G1 X64.482 Y88.956 E.01473
G1 X36.518 Y60.991 E1.1521
G1 X36.518 Y61.497 E.01473
G1 X64.482 Y89.461 E1.1521
G1 X64.482 Y89.967 E.01473
G1 X36.518 Y62.002 E1.1521
G1 X36.518 Y62.508 E.01473
G1 X64.482 Y90.472 E1.1521
G1 X64.482 Y90.978 E.01473
G1 X36.518 Y63.013 E1.1521
G1 X36.518 Y63.519 E.01473
G1 X64.482 Y91.483 E1.1521
G1 X64.482 Y91.989 E.01473
G1 X36.518 Y64.025 E1.1521
G1 X36.518 Y64.53 E.01473
G1 X64.482 Y92.495 E1.1521
G1 X64.482 Y93 E.01473
G1 X36.518 Y65.036 E1.1521
G1 X36.518 Y65.541 E.01473
G1 X64.482 Y93.506 E1.1521
G1 X64.482 Y94.011 E.01473
G1 X36.518 Y66.047 E1.1521
G1 X36.518 Y66.553 E.01473
G1 X64.482 Y94.517 E1.1521
G1 X64.482 Y95.023 E.01473
G1 X36.518 Y67.058 E1.1521
G1 X36.518 Y67.564 E.01473
G1 X64.482 Y95.528 E1.1521
G1 X64.482 Y96.034 E.01473
G1 X36.518 Y68.069 E1.1521
G1 X36.518 Y68.575 E.01473
G1 X64.482 Y96.539 E1.1521
G1 X64.482 Y97.045 E.01473
G1 X36.518 Y69.081 E1.1521
G1 X36.518 Y69.586 E.01473
G1 X64.482 Y97.551 E1.1521
G1 X64.482 Y98.056 E.01473
G1 X36.518 Y70.092 E1.1521
G1 X36.518 Y70.597 E.01473
G1 X64.482 Y98.562 E1.1521
G1 X64.482 Y99.067 E.01473
G1 X36.518 Y71.103 E1.1521
G1 X36.518 Y71.608 E.01473
M73 P1 R126
G1 X64.482 Y99.573 E1.1521
G1 X64.482 Y100.078 E.01473
G1 X36.518 Y72.114 E1.1521
G1 X36.518 Y72.62 E.01473
G1 X64.482 Y100.584 E1.1521
G1 X64.482 Y101.09 E.01473
G1 X36.518 Y73.125 E1.1521
G1 X36.518 Y73.631 E.01473
G1 X64.482 Y101.595 E1.1521
G1 X64.482 Y102.101 E.01473
G1 X36.518 Y74.136 E1.1521
G1 X36.518 Y74.642 E.01473
G1 X64.482 Y102.606 E1.1521
G1 X64.482 Y103.112 E.01473
G1 X36.518 Y75.148 E1.1521
G1 X36.518 Y75.653 E.01473
G1 X64.482 Y103.618 E1.1521
G1 X64.482 Y104.123 E.01473
G1 X36.518 Y76.159 E1.1521
G1 X36.518 Y76.664 E.01473
G1 X64.482 Y104.629 E1.1521
G1 X64.482 Y105.134 E.01473
G1 X36.518 Y77.17 E1.1521
G1 X36.518 Y77.675 E.01473
G1 X64.482 Y105.64 E1.1521
G1 X64.482 Y106.145 E.01473
G1 X36.518 Y78.181 E1.1521
G1 X36.518 Y78.687 E.01473
G1 X64.482 Y106.651 E1.1521
G1 X64.482 Y107.157 E.01473
G1 X36.518 Y79.192 E1.1521
G1 X36.518 Y79.698 E.01473
G1 X64.482 Y107.662 E1.1521
G1 X64.482 Y108.168 E.01473
G1 X36.518 Y80.203 E1.1521
G1 X36.518 Y80.709 E.01473
G1 X64.482 Y108.673 E1.1521
G1 X64.482 Y109.179 E.01473
G1 X36.518 Y81.215 E1.1521
G1 X36.518 Y81.72 E.01473
G1 X64.482 Y109.685 E1.1521
G1 X64.482 Y110.19 E.01473
G1 X36.518 Y82.226 E1.1521
G1 X36.518 Y82.731 E.01473
G1 X64.482 Y110.696 E1.1521
G1 X64.482 Y111.201 E.01473
G1 X36.518 Y83.237 E1.1521
G1 X36.518 Y83.743 E.01473
G1 X50.672 Y97.897 E.58314
G2 X50.189 Y97.919 I-.189 J1.156 E.0142
G1 X36.518 Y84.248 E.56322
G1 X36.518 Y84.754 E.01473
G1 X49.773 Y98.009 E.5461
G1 X49.438 Y98.179 E.01095
G1 X36.518 Y85.259 E.5323
G1 X36.518 Y85.765 E.01473
G1 X49.139 Y98.386 E.51996
G1 X48.886 Y98.638 E.01041
G1 X36.518 Y86.27 E.50955
G1 X36.518 Y86.776 E.01473
G1 X48.68 Y98.938 E.50105
G1 X48.509 Y99.273 E.01095
G1 X36.518 Y87.282 E.49402
G1 X36.518 Y87.787 E.01473
G1 X48.419 Y99.688 E.49031
G1 X48.37 Y100 E.00919
G1 X48.397 Y100.172 E.00507
G1 X36.357 Y88.132 E.49602
G1 E-3.42857 F3600
;WIPE_START
G1 F6300
G1 X37.064 Y88.839 E-.57143
;WIPE_END
G1 Z.6 F30000
G1 X64.643 Y111.868 Z.6
G1 Z.2
G1 E4 F2400
G1 F6300
G1 X52.603 Y99.828 E.49602
G1 X52.63 Y100 E.00507
G1 X52.581 Y100.311 E.00919
G1 X64.482 Y112.213 E.49031
G1 X64.482 Y112.718 E.01473
G1 X52.491 Y100.727 E.49402
G1 X52.321 Y101.062 E.01095
G1 X64.482 Y113.224 E.50105
G1 X64.482 Y113.729 E.01473
G1 X52.114 Y101.361 E.50954
G1 X51.862 Y101.614 E.01041
G1 X64.482 Y114.235 E.51996
G1 X64.482 Y114.74 E.01473
G1 X51.562 Y101.82 E.53229
G1 X51.227 Y101.991 E.01095
G1 X64.482 Y115.246 E.54609
G1 X64.482 Y115.752 E.01473
G1 X50.812 Y102.081 E.56321
G1 X50.5 Y102.13 E.00919
G1 X50.328 Y102.103 E.00507
G1 X64.482 Y116.257 E.58313
G1 X64.482 Y116.763 E.01473
G1 X36.518 Y88.798 E1.1521
G1 X36.518 Y89.304 E.01473
G1 X64.482 Y117.268 E1.1521
G1 X64.482 Y117.774 E.01473
G1 X36.518 Y89.81 E1.1521
G1 X36.518 Y90.315 E.01473
G1 X64.482 Y118.28 E1.1521
G1 X64.482 Y118.785 E.01473
G1 X36.518 Y90.821 E1.1521
G1 X36.518 Y91.326 E.01473
G1 X64.482 Y119.291 E1.1521
G1 X64.482 Y119.796 E.01473
G1 X36.518 Y91.832 E1.1521
G1 X36.518 Y92.338 E.01473
G1 X64.482 Y120.302 E1.1521
G1 X64.482 Y120.808 E.01473
G1 X36.518 Y92.843 E1.1521
G1 X36.518 Y93.349 E.01473
G1 X64.482 Y121.313 E1.1521
G1 X64.482 Y121.819 E.01473
G1 X36.518 Y93.854 E1.1521
G1 X36.518 Y94.36 E.01473
G1 X64.482 Y122.324 E1.1521
G1 X64.482 Y122.83 E.01473
G1 X36.518 Y94.865 E1.1521
G1 X36.518 Y95.371 E.01473
G1 X64.482 Y123.335 E1.1521
G1 X64.482 Y123.841 E.01473
G1 X36.518 Y95.877 E1.1521
G1 X36.518 Y96.382 E.01473
G1 X64.482 Y124.347 E1.1521
G1 X64.482 Y124.852 E.01473
G1 X36.518 Y96.888 E1.1521
G1 X36.518 Y97.393 E.01473
G1 X64.482 Y125.358 E1.1521
G1 X64.482 Y125.863 E.01473
G1 X36.518 Y97.899 E1.1521
G1 X36.518 Y98.405 E.01473
G1 X64.482 Y126.369 E1.1521
G1 X64.482 Y126.875 E.01473
G1 X36.518 Y98.91 E1.1521
G1 X36.518 Y99.416 E.01473
G1 X64.482 Y127.38 E1.1521
G1 X64.482 Y127.886 E.01473
G1 X36.518 Y99.921 E1.1521
G1 X36.518 Y100.427 E.01473
G1 X64.482 Y128.391 E1.1521
G1 X64.482 Y128.897 E.01473
G1 X36.518 Y100.933 E1.1521
G1 X36.518 Y101.438 E.01473
G1 X64.482 Y129.402 E1.1521
G1 X64.482 Y129.908 E.01473
G1 X36.518 Y101.944 E1.1521
G1 X36.518 Y102.449 E.01473
G1 X64.482 Y130.414 E1.1521
G1 X64.482 Y130.919 E.01473
G1 X36.518 Y102.955 E1.1521
G1 X36.518 Y103.46 E.01473
G1 X64.482 Y131.425 E1.1521
G1 X64.482 Y131.93 E.01473
G1 X36.518 Y103.966 E1.1521
G1 X36.518 Y104.472 E.01473
G1 X64.482 Y132.436 E1.1521
G1 X64.482 Y132.942 E.01473
G1 X36.518 Y104.977 E1.1521
G1 X36.518 Y105.483 E.01473
G1 X64.482 Y133.447 E1.1521
G1 X64.482 Y133.953 E.01473
G1 X36.518 Y105.988 E1.1521
G1 X36.518 Y106.494 E.01473
M73 P2 R126
G1 X64.482 Y134.458 E1.1521
G1 X64.482 Y134.964 E.01473
G1 X36.518 Y107 E1.1521
G1 X36.518 Y107.505 E.01473
G1 X64.482 Y135.47 E1.1521
G1 X64.482 Y135.975 E.01473
G1 X36.518 Y108.011 E1.1521
G1 X36.518 Y108.516 E.01473
G1 X64.482 Y136.481 E1.1521
G1 X64.482 Y136.986 E.01473
G1 X36.518 Y109.022 E1.1521
G1 X36.518 Y109.527 E.01473
G1 X64.482 Y137.492 E1.1521
G1 X64.482 Y137.997 E.01473
G1 X36.518 Y110.033 E1.1521
G1 X36.518 Y110.539 E.01473
G1 X64.482 Y138.503 E1.1521
G1 X64.482 Y139.009 E.01473
G1 X36.518 Y111.044 E1.1521
G1 X36.518 Y111.55 E.01473
G1 X64.482 Y139.514 E1.1521
G1 X64.482 Y140.02 E.01473
G1 X36.518 Y112.055 E1.1521
G1 X36.518 Y112.561 E.01473
G1 X64.482 Y140.525 E1.1521
G1 X64.482 Y141.031 E.01473
G1 X36.518 Y113.067 E1.1521
G1 X36.518 Y113.572 E.01473
G1 X64.482 Y141.537 E1.1521
G1 X64.482 Y142.042 E.01473
G1 X36.518 Y114.078 E1.1521
G1 X36.518 Y114.583 E.01473
G1 X64.482 Y142.548 E1.1521
G1 X64.482 Y143.053 E.01473
G1 X36.518 Y115.089 E1.1521
G1 X36.518 Y115.595 E.01473
G1 X64.482 Y143.559 E1.1521
G1 X64.482 Y144.065 E.01473
G1 X36.518 Y116.1 E1.1521
G1 X36.518 Y116.606 E.01473
G1 X64.482 Y144.57 E1.1521
G1 X64.482 Y145.076 E.01473
G1 X36.518 Y117.111 E1.1521
G1 X36.518 Y117.617 E.01473
G1 X64.482 Y145.581 E1.1521
G1 X64.482 Y146.087 E.01473
G1 X36.518 Y118.122 E1.1521
G1 X36.518 Y118.628 E.01473
G1 X64.482 Y146.592 E1.1521
G1 X64.482 Y147.098 E.01473
G1 X36.518 Y119.134 E1.1521
G1 X36.518 Y119.639 E.01473
G1 X64.482 Y147.604 E1.1521
G1 X64.482 Y148.109 E.01473
G1 X36.518 Y120.145 E1.1521
G1 X36.518 Y120.65 E.01473
M73 P2 R125
G1 X64.482 Y148.615 E1.1521
G1 X64.482 Y149.12 E.01473
G1 X36.518 Y121.156 E1.1521
G1 X36.518 Y121.662 E.01473
