; ==========================================
; TESTE DE MATERIAL — MDF 3mm
; CNC: Two Trees TTS-10 (10W óptico)
; LaserGRBL / Lightburn
; ==========================================
;
; OBJETIVO: Encontrar parâmetros ideais de corte
; para MDF 3mm com air assist.
;
; LAYOUT: 5 quadrados 20x20mm lado a lado
; Cada um com slot 10x2mm interno (teste de detalhes)
; Gravação de identificação sobre cada quadrado
;
; QUADRADOS (2 passadas cada):
;   A = S1000 F150  (100%, lento)
;   B = S1000 F200  (100%, médio)  ← padrão sugerido
;   C = S1000 F250  (100%, rápido)
;   D = S1000 F300  (100%, muito rápido)
;   E = S900  F200  (90%, médio)
;
; Posições X: A=0, B=25, C=50, D=75, E=100
; Total: 125 x 20mm de MDF
;
; CHECKLIST:
;   [ ] Air assist LIGADO
;   [ ] Foco em 1.5mm de profundidade (centro do MDF)
;   [ ] MDF fixo (fita ou grampos)
;   [ ] Exaustor ligado
;
; Após o teste, verifique:
;   1. Qual quadrado cortou completamente?
;   2. Qual teve menos queimadura nas bordas?
;   3. O slot 10x2mm ficou limpo?
;
; Tempo estimado: ~5 min
; ==========================================

G21
G90
G17
M5

; ===== GRAVAÇÃO (identificação, 1 passada) =====
; Feita ANTES dos cortes para não perder referência

; Etiqueta "A" (S1000 F150)
G0 X6.00 Y22.00
M4 S300
G1 X10.00 Y30.00 F400
M5
G0 X10.00 Y30.00
M4 S300
G1 X14.00 Y22.00 F400
M5
G0 X8.00 Y26.00
M4 S300
G1 X12.00 Y26.00 F400
M5

; Etiqueta "B" (S1000 F200)
G0 X31.00 Y22.00
M4 S300
G1 X31.00 Y30.00 F400
G1 X36.00 Y30.00 F400
G1 X38.00 Y28.00 F400
G1 X36.00 Y26.00 F400
G1 X31.00 Y26.00 F400
M5
G0 X36.00 Y26.00
M4 S300
G1 X38.00 Y24.00 F400
G1 X36.00 Y22.00 F400
G1 X31.00 Y22.00 F400
M5

; Etiqueta "C" (S1000 F250)
G0 X63.00 Y22.00
M4 S300
G1 X57.00 Y22.00 F400
G1 X56.00 Y23.00 F400
G1 X56.00 Y29.00 F400
G1 X57.00 Y30.00 F400
G1 X63.00 Y30.00 F400
M5

; Etiqueta "D" (S1000 F300)
G0 X81.00 Y22.00
M4 S300
G1 X81.00 Y30.00 F400
G1 X86.00 Y30.00 F400
G1 X88.00 Y28.00 F400
G1 X88.00 Y24.00 F400
G1 X86.00 Y22.00 F400
G1 X81.00 Y22.00 F400
M5

; Etiqueta "E" (S900 F200)
G0 X106.00 Y22.00
M4 S300
G1 X106.00 Y30.00 F400
G1 X113.00 Y30.00 F400
M5
G0 X106.00 Y26.00
M4 S300
G1 X111.00 Y26.00 F400
M5
G0 X106.00 Y22.00
M4 S300
G1 X113.00 Y22.00 F400
M5

; Linha de parâmetros (sublinhado sob as letras)
; "F150  F200  F250  F300  F200"
G0 X0.00 Y21.00
M4 S300
G1 X20.00 Y21.00 F400
M5
G0 X25.00 Y21.00
M4 S300
G1 X45.00 Y21.00 F400
M5
G0 X50.00 Y21.00
M4 S300
G1 X70.00 Y21.00 F400
M5
G0 X75.00 Y21.00
M4 S300
G1 X95.00 Y21.00 F400
M5
G0 X100.00 Y21.00
M4 S300
G1 X120.00 Y21.00 F400
M5

; =============================================
; ===== CORTES — PASSAGEM 1/2 ================
; =============================================

; --- QUADRADO A: S1000 F150 ---
G0 X0.00 Y0.00
M4 S1000
G1 X20.00 Y0.00 F150
G1 X20.00 Y20.00 F150
G1 X0.00 Y20.00 F150
G1 X0.00 Y0.00 F150
M5
; Slot A (10x2mm, centro X=10, Y=3)
G0 X5.00 Y2.00
M4 S1000
G1 X15.00 Y2.00 F150
G1 X15.00 Y4.00 F150
G1 X5.00 Y4.00 F150
G1 X5.00 Y2.00 F150
M5

; --- QUADRADO B: S1000 F200 (padrão sugerido) ---
G0 X25.00 Y0.00
M4 S1000
G1 X45.00 Y0.00 F200
G1 X45.00 Y20.00 F200
G1 X25.00 Y20.00 F200
G1 X25.00 Y0.00 F200
M5
; Slot B
G0 X30.00 Y2.00
M4 S1000
G1 X40.00 Y2.00 F200
G1 X40.00 Y4.00 F200
G1 X30.00 Y4.00 F200
G1 X30.00 Y2.00 F200
M5

; --- QUADRADO C: S1000 F250 ---
G0 X50.00 Y0.00
M4 S1000
G1 X70.00 Y0.00 F250
G1 X70.00 Y20.00 F250
G1 X50.00 Y20.00 F250
G1 X50.00 Y0.00 F250
M5
; Slot C
G0 X55.00 Y2.00
M4 S1000
G1 X65.00 Y2.00 F250
G1 X65.00 Y4.00 F250
G1 X55.00 Y4.00 F250
G1 X55.00 Y2.00 F250
M5

; --- QUADRADO D: S1000 F300 ---
G0 X75.00 Y0.00
M4 S1000
G1 X95.00 Y0.00 F300
G1 X95.00 Y20.00 F300
G1 X75.00 Y20.00 F300
G1 X75.00 Y0.00 F300
M5
; Slot D
G0 X80.00 Y2.00
M4 S1000
G1 X90.00 Y2.00 F300
G1 X90.00 Y4.00 F300
G1 X80.00 Y4.00 F300
G1 X80.00 Y2.00 F300
M5

; --- QUADRADO E: S900 F200 ---
G0 X100.00 Y0.00
M4 S900
G1 X120.00 Y0.00 F200
G1 X120.00 Y20.00 F200
G1 X100.00 Y20.00 F200
G1 X100.00 Y0.00 F200
M5
; Slot E
G0 X105.00 Y2.00
M4 S900
G1 X115.00 Y2.00 F200
G1 X115.00 Y4.00 F200
G1 X105.00 Y4.00 F200
G1 X105.00 Y2.00 F200
M5

; =============================================
; ===== CORTES — PASSAGEM 2/2 ================
; =============================================

; --- QUADRADO A: S1000 F150 ---
G0 X0.00 Y0.00
M4 S1000
G1 X20.00 Y0.00 F150
G1 X20.00 Y20.00 F150
G1 X0.00 Y20.00 F150
G1 X0.00 Y0.00 F150
M5
G0 X5.00 Y2.00
M4 S1000
G1 X15.00 Y2.00 F150
G1 X15.00 Y4.00 F150
G1 X5.00 Y4.00 F150
G1 X5.00 Y2.00 F150
M5

; --- QUADRADO B: S1000 F200 ---
G0 X25.00 Y0.00
M4 S1000
G1 X45.00 Y0.00 F200
G1 X45.00 Y20.00 F200
G1 X25.00 Y20.00 F200
G1 X25.00 Y0.00 F200
M5
G0 X30.00 Y2.00
M4 S1000
G1 X40.00 Y2.00 F200
G1 X40.00 Y4.00 F200
G1 X30.00 Y4.00 F200
G1 X30.00 Y2.00 F200
M5

; --- QUADRADO C: S1000 F250 ---
G0 X50.00 Y0.00
M4 S1000
G1 X70.00 Y0.00 F250
G1 X70.00 Y20.00 F250
G1 X50.00 Y20.00 F250
G1 X50.00 Y0.00 F250
M5
G0 X55.00 Y2.00
M4 S1000
G1 X65.00 Y2.00 F250
G1 X65.00 Y4.00 F250
G1 X55.00 Y4.00 F250
G1 X55.00 Y2.00 F250
M5

; --- QUADRADO D: S1000 F300 ---
G0 X75.00 Y0.00
M4 S1000
G1 X95.00 Y0.00 F300
G1 X95.00 Y20.00 F300
G1 X75.00 Y20.00 F300
G1 X75.00 Y0.00 F300
M5
G0 X80.00 Y2.00
M4 S1000
G1 X90.00 Y2.00 F300
G1 X90.00 Y4.00 F300
G1 X80.00 Y4.00 F300
G1 X80.00 Y2.00 F300
M5

; --- QUADRADO E: S900 F200 ---
G0 X100.00 Y0.00
M4 S900
G1 X120.00 Y0.00 F200
G1 X120.00 Y20.00 F200
G1 X100.00 Y20.00 F200
G1 X100.00 Y0.00 F200
M5
G0 X105.00 Y2.00
M4 S900
G1 X115.00 Y2.00 F200
G1 X115.00 Y4.00 F200
G1 X105.00 Y4.00 F200
G1 X105.00 Y2.00 F200
M5

; =============================================
G0 X0.00 Y0.00
M5
M2
