; HEADER_BLOCK_START
; generated by OrcaSlicer 2.3.1 on 2026-02-10 at 08:50:20
; total layer number: 50
; filament_density: 1.24
; filament_diameter: 1.75
; max_z_height: 10.00
; HEADER_BLOCK_END

; external perimeters extrusion width = 0.40mm
; perimeters extrusion width = 0.40mm
; infill extrusion width = 0.40mm
; solid infill extrusion width = 0.40mm
; top infill extrusion width = 0.40mm
; first layer extrusion width = 0.40mm

; EXECUTABLE_BLOCK_START
M73 P0 R158
M201 X500 Y500 Z100 E5000
M203 X500 Y500 Z10 E60
M204 P500 R1000 T500
M205 X8.00 Y8.00 Z0.40 E5.00 ; sets the jerk limits, mm/sec
;TYPE:Custom
G90 ; use absolute coordinates
M83 ; extruder relative mode
M140 S55 ; set final bed temp
M104 S150 ; set temporary nozzle temp to prevent oozing during homing
G4 S10 ; allow partial nozzle warmup
G28 ; home all axis
G1 Z50 F240
G1 X2 Y10 F3000
M73 P0 R157
M104 S220 ; set final nozzle temp
M190 S55 ; wait for bed temp to stabilize
M109 S220 ; wait for nozzle temp to stabilize
G1 Z0.28 F240
G92 E0
G1 Y140 E10 F1500 ; prime the nozzle
G1 X2.3 F5000
G92 E0
G1 Y10 E10 F1200 ; prime the nozzle
G92 E0
G90
G21
M83 ; use relative distances for extrusion
; Filament gcode
M106 S0
;LAYER_CHANGE
;Z:0.2
;HEIGHT:0.2
;BEFORE_LAYER_CHANGE
;0.2
G92 E0

G1 E-4 F3600
;_SET_FAN_SPEED_CHANGING_LAYER
M204 S500
; printing object TRILHO_PRINT_LAYOUT.stl id:15 copy 0
G1 Z.6 F30000
G1 X135.231 Y101.428
G1 Z.6
G1 Z.2
G1 E4 F2400
;TYPE:Inner wall
;WIDTH:0.4
G1 F3000
G1 X135.211 Y101.408 E.00082
G1 X134.896 Y101.093 E.01297
G1 X134.632 Y100.575 E.01693
G1 X134.541 Y100 E.01693
G1 X134.632 Y99.425 E.01693
G1 X134.896 Y98.907 E.01693
G1 X135.307 Y98.496 E.01693
G1 X135.825 Y98.232 E.01693
G1 X136.266 Y98.162 E.01297
G1 X136.4 Y98.141 E.00396
G1 X136.975 Y98.232 E.01693
G1 X137.493 Y98.496 E.01693
G1 X137.904 Y98.907 E.01693
G1 X138.168 Y99.425 E.01693
G1 X138.259 Y100 E.01693
G1 X138.168 Y100.575 E.01693
G1 X138.107 Y100.696 E.00396
G1 X137.904 Y101.093 E.01297
G1 X137.493 Y101.504 E.01693
G1 X136.975 Y101.768 E.01693
G1 X136.4 Y101.859 E.01693
G1 X135.825 Y101.768 E.01693
G1 X135.307 Y101.504 E.01692
G1 X135.259 Y101.456 E.00197
G1 X135.514 Y101.145 F30000
;TYPE:Outer wall
G1 F3000
G1 X135.494 Y101.125 E.00082
G1 X135.223 Y100.855 E.01113
G1 X135.017 Y100.449 E.01324
G1 X134.946 Y100 E.01324
G1 X135.017 Y99.551 E.01324
G1 X135.223 Y99.145 E.01324
G1 X135.545 Y98.823 E.01324
G1 X135.951 Y98.617 E.01324
G1 X136.328 Y98.557 E.01113
G1 X136.4 Y98.546 E.00211
G1 X136.849 Y98.617 E.01324
G1 X137.255 Y98.823 E.01324
G1 X137.577 Y99.145 E.01324
G1 X137.783 Y99.551 E.01324
G1 X137.854 Y100 E.01324
G1 X137.783 Y100.449 E.01324
G1 X137.75 Y100.514 E.00211
G1 X137.577 Y100.855 E.01113
G1 X137.255 Y101.177 E.01324
G1 X136.849 Y101.383 E.01324
G1 X136.4 Y101.454 E.01324
G1 X135.951 Y101.383 E.01324
G1 X135.545 Y101.177 E.01324
G1 X135.542 Y101.173 E.00013
G1 E-2.8 F3600
;WIPE_START
G1 F3000
G1 X135.494 Y101.125 E-.08178
G1 X135.223 Y100.855 E-.45889
G1 X135.017 Y100.449 E-.54603
G1 X135.002 Y100.356 E-.1133
;WIPE_END
G1 Z.6 F30000
G1 X133.45 Y160.25 Z.6
G1 Z.2
G1 E4 F2400
;TYPE:Inner wall
G1 F3000
G1 X133.45 Y39.75 E3.50624
G1 X139.35 Y39.75 E.17167
G1 X139.35 Y160.25 E3.50624
G1 X133.49 Y160.25 E.17051
G1 X133.05 Y160.65 F30000
;TYPE:Outer wall
G1 F3000
G1 X133.05 Y39.35 E3.52952
G1 X139.75 Y39.35 E.19495
G1 X139.75 Y160.65 E3.52952
G1 X133.09 Y160.65 E.19379
G1 E-2.8 F3600
;WIPE_START
G1 F3000
G1 X133.09 Y159.65 E-1.2
;WIPE_END
G1 Z.6 F30000
G1 X139.243 Y40.581 Z.6
G1 Z.2
G1 E4 F2400
;TYPE:Bottom surface
;WIDTH:0.400855
G1 F6300
G1 X138.68 Y40.018 E.02322
G1 X138.174 Y40.018 E.01476
G1 X139.082 Y40.926 E.03747
G1 X139.082 Y41.432 E.01476
G1 X137.668 Y40.018 E.05835
G1 X137.161 Y40.018 E.01476
G1 X139.082 Y41.939 E.07923
G1 X139.082 Y42.445 E.01476
G1 X136.655 Y40.018 E.10011
G1 X136.149 Y40.018 E.01476
G1 X139.082 Y42.951 E.12099
G1 X139.082 Y43.457 E.01476
G1 X135.643 Y40.018 E.14187
G1 X135.137 Y40.018 E.01476
G1 X139.082 Y43.963 E.16275
G1 X139.082 Y44.47 E.01476
G1 X134.63 Y40.018 E.18363
G1 X134.124 Y40.018 E.01476
G1 X139.082 Y44.976 E.20451
G1 X139.082 Y45.482 E.01476
G1 X133.718 Y40.118 E.22127
G1 X133.718 Y40.624 E.01476
G1 X139.082 Y45.988 E.22127
G1 X139.082 Y46.494 E.01476
G1 X133.718 Y41.13 E.22127
G1 X133.718 Y41.636 E.01476
G1 X139.082 Y47.001 E.22127
G1 X139.082 Y47.507 E.01476
G1 X133.718 Y42.142 E.22127
G1 X133.718 Y42.649 E.01476
G1 X139.082 Y48.013 E.22127
G1 X139.082 Y48.519 E.01476
G1 X133.718 Y43.155 E.22127
G1 X133.718 Y43.661 E.01476
G1 X139.082 Y49.025 E.22127
G1 X139.082 Y49.532 E.01476
G1 X133.718 Y44.167 E.22127
G1 X133.718 Y44.673 E.01476
G1 X139.082 Y50.038 E.22127
G1 X139.082 Y50.544 E.01476
G1 X133.718 Y45.18 E.22127
G1 X133.718 Y45.686 E.01476
G1 X139.082 Y51.05 E.22127
G1 X139.082 Y51.556 E.01476
G1 X133.718 Y46.192 E.22127
G1 X133.718 Y46.698 E.01476
G1 X139.082 Y52.063 E.22127
G1 X139.082 Y52.569 E.01476
G1 X133.718 Y47.204 E.22127
G1 X133.718 Y47.711 E.01476
G1 X139.082 Y53.075 E.22127
G1 X139.082 Y53.581 E.01476
G1 X133.718 Y48.217 E.22127
G1 X133.718 Y48.723 E.01476
G1 X139.082 Y54.087 E.22127
G1 X139.082 Y54.594 E.01476
G1 X133.718 Y49.229 E.22127
G1 X133.718 Y49.735 E.01476
G1 X139.082 Y55.1 E.22127
G1 X139.082 Y55.606 E.01476
G1 X133.718 Y50.242 E.22127
G1 X133.718 Y50.748 E.01476
G1 X139.082 Y56.112 E.22127
G1 X139.082 Y56.618 E.01476
G1 X133.718 Y51.254 E.22127
G1 X133.718 Y51.76 E.01476
G1 X139.082 Y57.125 E.22127
G1 X139.082 Y57.631 E.01476
G1 X133.718 Y52.266 E.22127
G1 X133.718 Y52.773 E.01476
G1 X139.082 Y58.137 E.22127
G1 X139.082 Y58.643 E.01476
G1 X133.718 Y53.279 E.22127
G1 X133.718 Y53.785 E.01476
G1 X139.082 Y59.149 E.22127
G1 X139.082 Y59.656 E.01476
G1 X133.718 Y54.291 E.22127
G1 X133.718 Y54.797 E.01476
G1 X139.082 Y60.162 E.22127
G1 X139.082 Y60.668 E.01476
G1 X133.718 Y55.304 E.22127
G1 X133.718 Y55.81 E.01476
G1 X139.082 Y61.174 E.22127
G1 X139.082 Y61.68 E.01476
G1 X133.718 Y56.316 E.22127
G1 X133.718 Y56.822 E.01476
G1 X139.082 Y62.187 E.22127
G1 X139.082 Y62.693 E.01476
G1 X133.718 Y57.328 E.22127
G1 X133.718 Y57.835 E.01476
G1 X139.082 Y63.199 E.22127
G1 X139.082 Y63.705 E.01476
G1 X133.718 Y58.341 E.22127
G1 X133.718 Y58.847 E.01476
G1 X139.082 Y64.211 E.22127
G1 X139.082 Y64.718 E.01476
G1 X133.718 Y59.353 E.22127
G1 X133.718 Y59.859 E.01476
G1 X139.082 Y65.224 E.22127
G1 X139.082 Y65.73 E.01476
G1 X133.718 Y60.366 E.22127
G1 X133.718 Y60.872 E.01476
G1 X139.082 Y66.236 E.22127
G1 X139.082 Y66.742 E.01476
G1 X133.718 Y61.378 E.22127
G1 X133.718 Y61.884 E.01476
G1 X139.082 Y67.249 E.22127
G1 X139.082 Y67.755 E.01476
G1 X133.718 Y62.39 E.22127
G1 X133.718 Y62.897 E.01476
G1 X139.082 Y68.261 E.22127
G1 X139.082 Y68.767 E.01476
G1 X133.718 Y63.403 E.22127
G1 X133.718 Y63.909 E.01476
G1 X139.082 Y69.273 E.22127
G1 X139.082 Y69.779 E.01476
G1 X133.718 Y64.415 E.22127
G1 X133.718 Y64.921 E.01476
G1 X139.082 Y70.286 E.22127
G1 X139.082 Y70.792 E.01476
G1 X133.718 Y65.427 E.22127
G1 X133.718 Y65.934 E.01476
G1 X139.082 Y71.298 E.22127
G1 X139.082 Y71.804 E.01476
G1 X133.718 Y66.44 E.22127
G1 X133.718 Y66.946 E.01476
G1 X139.082 Y72.31 E.22127
G1 X139.082 Y72.817 E.01476
G1 X133.718 Y67.452 E.22127
G1 X133.718 Y67.958 E.01476
G1 X139.082 Y73.323 E.22127
G1 X139.082 Y73.829 E.01476
M73 P0 R156
G1 X133.718 Y68.465 E.22127
G1 X133.718 Y68.971 E.01476
G1 X139.082 Y74.335 E.22127
G1 X139.082 Y74.841 E.01476
G1 X133.718 Y69.477 E.22127
G1 X133.718 Y69.983 E.01476
G1 X139.082 Y75.348 E.22127
G1 X139.082 Y75.854 E.01476
G1 X133.718 Y70.489 E.22127
G1 X133.718 Y70.996 E.01476
G1 X139.082 Y76.36 E.22127
G1 X139.082 Y76.866 E.01476
G1 X133.718 Y71.502 E.22127
G1 X133.718 Y72.008 E.01476
G1 X139.082 Y77.372 E.22127
G1 X139.082 Y77.879 E.01476
G1 X133.718 Y72.514 E.22127
G1 X133.718 Y73.02 E.01476
G1 X139.082 Y78.385 E.22127
G1 X139.082 Y78.891 E.01476
G1 X133.718 Y73.527 E.22127
G1 X133.718 Y74.033 E.01476
G1 X139.082 Y79.397 E.22127
G1 X139.082 Y79.903 E.01476
G1 X133.718 Y74.539 E.22127
G1 X133.718 Y75.045 E.01476
G1 X139.082 Y80.41 E.22127
G1 X139.082 Y80.916 E.01476
G1 X133.718 Y75.551 E.22127
G1 X133.718 Y76.058 E.01476
G1 X139.082 Y81.422 E.22127
G1 X139.082 Y81.928 E.01476
G1 X133.718 Y76.564 E.22127
G1 X133.718 Y77.07 E.01476
G1 X139.082 Y82.434 E.22127
G1 X139.082 Y82.941 E.01476
G1 X133.718 Y77.576 E.22127
G1 X133.718 Y78.082 E.01476
G1 X139.082 Y83.447 E.22127
G1 X139.082 Y83.953 E.01476
G1 X133.718 Y78.589 E.22127
G1 X133.718 Y79.095 E.01476
G1 X139.082 Y84.459 E.22127
G1 X139.082 Y84.965 E.01476
G1 X133.718 Y79.601 E.22127
G1 X133.718 Y80.107 E.01476
G1 X139.082 Y85.472 E.22127
G1 X139.082 Y85.978 E.01476
G1 X133.718 Y80.613 E.22127
G1 X133.718 Y81.12 E.01476
G1 X139.082 Y86.484 E.22127
G1 X139.082 Y86.99 E.01476
G1 X133.718 Y81.626 E.22127
G1 X133.718 Y82.132 E.01476
G1 X139.082 Y87.496 E.22127
G1 X139.082 Y88.003 E.01476
G1 X133.718 Y82.638 E.22127
G1 X133.718 Y83.144 E.01476
G1 X139.082 Y88.509 E.22127
G1 X139.082 Y89.015 E.01476
G1 X133.718 Y83.651 E.22127
G1 X133.718 Y84.157 E.01476
G1 X139.082 Y89.521 E.22127
G1 X139.082 Y90.027 E.01476
G1 X133.718 Y84.663 E.22127
G1 X133.718 Y85.169 E.01476
G1 X139.082 Y90.534 E.22127
G1 X139.082 Y91.04 E.01476
G1 X133.718 Y85.675 E.22127
G1 X133.718 Y86.182 E.01476
G1 X139.082 Y91.546 E.22127
G1 X139.082 Y92.052 E.01476
G1 X133.718 Y86.688 E.22127
G1 X133.718 Y87.194 E.01476
G1 X139.082 Y92.558 E.22127
G1 X139.082 Y93.065 E.01476
G1 X133.718 Y87.7 E.22127
G1 X133.718 Y88.206 E.01476
G1 X139.082 Y93.571 E.22127
G1 X139.082 Y94.077 E.01476
G1 X133.718 Y88.713 E.22127
G1 X133.718 Y89.219 E.01476
G1 X139.082 Y94.583 E.22127
G1 X139.082 Y95.089 E.01476
G1 X133.718 Y89.725 E.22127
G1 X133.718 Y90.231 E.01476
G1 X139.082 Y95.596 E.22127
G1 X139.082 Y96.102 E.01476
G1 X133.718 Y90.737 E.22127
G1 X133.718 Y91.244 E.01476
G1 X139.082 Y96.608 E.22127
G1 X139.082 Y97.114 E.01476
G1 X133.718 Y91.75 E.22127
G1 X133.718 Y92.256 E.01476
G1 X139.082 Y97.62 E.22127
G1 X139.082 Y98.126 E.01476
G1 X133.718 Y92.762 E.22127
G1 X133.718 Y93.268 E.01476
G1 X139.082 Y98.633 E.22127
G1 X139.082 Y99.139 E.01476
G1 X133.718 Y93.774 E.22127
G1 X133.718 Y94.281 E.01476
G1 X139.082 Y99.645 E.22127
G1 X139.082 Y100.151 E.01476
G1 X138.455 Y99.524 E.02587
G1 X138.426 Y99.342 E.00539
G1 X138.124 Y98.748 E.01944
G1 X137.652 Y98.276 E.01944
G1 X137.058 Y97.974 E.01944
G1 X136.876 Y97.945 E.00539
G1 X133.718 Y94.787 E.13026
G1 X133.718 Y95.293 E.01476
G1 X136.309 Y97.884 E.10687
G1 X135.872 Y97.953 E.0129
G1 X133.718 Y95.799 E.08885
G1 X133.718 Y96.305 E.01476
G1 X135.506 Y98.094 E.07377
G1 X135.171 Y98.265 E.01098
G1 X133.718 Y96.812 E.05993
G1 X133.718 Y97.318 E.01476
G1 X134.912 Y98.512 E.04926
G1 X134.665 Y98.771 E.01044
G1 X133.718 Y97.824 E.03905
G1 X133.718 Y98.33 E.01476
G1 X134.494 Y99.106 E.03201
G1 X134.374 Y99.342 E.00771
G1 X134.353 Y99.472 E.00384
G1 X133.718 Y98.836 E.02621
G1 X133.718 Y99.343 E.01476
G1 X134.443 Y100.068 E.02991
G1 E-3.42857 F3600
;WIPE_START
G1 F6300
G1 X133.736 Y99.361 E-.57143
;WIPE_END
G1 Z.6 F30000
G1 X138.357 Y99.932 Z.6
G1 Z.2
G1 E4 F2400
G1 F6300
G1 X139.082 Y100.657 E.02991
G1 X139.082 Y101.164 E.01476
G1 X138.447 Y100.528 E.02621
G3 X138.306 Y100.894 I-1.034 J-.188 E.01149
G1 X139.082 Y101.67 E.03201
G1 X139.082 Y102.176 E.01476
G1 X138.135 Y101.229 E.03906
G1 X137.888 Y101.488 E.01044
G1 X139.082 Y102.682 E.04926
G1 X139.082 Y103.188 E.01476
G1 X137.629 Y101.735 E.05994
G1 X137.294 Y101.906 E.01098
G1 X139.082 Y103.695 E.07377
G1 X139.082 Y104.201 E.01476
G1 X136.928 Y102.047 E.08885
G1 X136.491 Y102.116 E.0129
G1 X139.082 Y104.707 E.10688
G1 X139.082 Y105.213 E.01476
G1 X135.924 Y102.055 E.13027
G1 X135.742 Y102.026 E.00539
G1 X135.148 Y101.724 E.01944
G1 X135.022 Y101.597 E.0052
G1 X134.676 Y101.252 E.01424
G1 X134.374 Y100.658 E.01944
G1 X134.345 Y100.476 E.00539
G1 X133.718 Y99.849 E.02587
G1 X133.718 Y100.355 E.01476
G1 X139.082 Y105.719 E.22127
G1 X139.082 Y106.226 E.01476
G1 X133.718 Y100.861 E.22127
G1 X133.718 Y101.367 E.01476
G1 X139.082 Y106.732 E.22127
G1 X139.082 Y107.238 E.01476
G1 X133.718 Y101.874 E.22127
G1 X133.718 Y102.38 E.01476
G1 X139.082 Y107.744 E.22127
G1 X139.082 Y108.25 E.01476
G1 X133.718 Y102.886 E.22127
G1 X133.718 Y103.392 E.01476
G1 X139.082 Y108.757 E.22127
G1 X139.082 Y109.263 E.01476
G1 X133.718 Y103.898 E.22127
G1 X133.718 Y104.405 E.01476
G1 X139.082 Y109.769 E.22127
G1 X139.082 Y110.275 E.01476
G1 X133.718 Y104.911 E.22127
G1 X133.718 Y105.417 E.01476
G1 X139.082 Y110.781 E.22127
G1 X139.082 Y111.288 E.01476
G1 X133.718 Y105.923 E.22127
G1 X133.718 Y106.429 E.01476
G1 X139.082 Y111.794 E.22127
G1 X139.082 Y112.3 E.01476
G1 X133.718 Y106.936 E.22127
G1 X133.718 Y107.442 E.01476
G1 X139.082 Y112.806 E.22127
G1 X139.082 Y113.312 E.01476
G1 X133.718 Y107.948 E.22127
G1 X133.718 Y108.454 E.01476
G1 X139.082 Y113.819 E.22127
G1 X139.082 Y114.325 E.01476
G1 X133.718 Y108.96 E.22127
G1 X133.718 Y109.467 E.01476
G1 X139.082 Y114.831 E.22127
G1 X139.082 Y115.337 E.01476
G1 X133.718 Y109.973 E.22127
G1 X133.718 Y110.479 E.01476
G1 X139.082 Y115.843 E.22127
G1 X139.082 Y116.35 E.01476
G1 X133.718 Y110.985 E.22127
G1 X133.718 Y111.491 E.01476
G1 X139.082 Y116.856 E.22127
G1 X139.082 Y117.362 E.01476
G1 X133.718 Y111.998 E.22127
G1 X133.718 Y112.504 E.01476
G1 X139.082 Y117.868 E.22127
G1 X139.082 Y118.374 E.01476
G1 X133.718 Y113.01 E.22127
G1 X133.718 Y113.516 E.01476
G1 X139.082 Y118.881 E.22127
G1 X139.082 Y119.387 E.01476
G1 X133.718 Y114.022 E.22127
G1 X133.718 Y114.529 E.01476
G1 X139.082 Y119.893 E.22127
G1 X139.082 Y120.399 E.01476
G1 X133.718 Y115.035 E.22127
G1 X133.718 Y115.541 E.01476
G1 X139.082 Y120.905 E.22127
G1 X139.082 Y121.412 E.01476
G1 X133.718 Y116.047 E.22127
G1 X133.718 Y116.553 E.01476
G1 X139.082 Y121.918 E.22127
G1 X139.082 Y122.424 E.01476
G1 X133.718 Y117.06 E.22127
G1 X133.718 Y117.566 E.01476
G1 X139.082 Y122.93 E.22127
G1 X139.082 Y123.436 E.01476
G1 X133.718 Y118.072 E.22127
G1 X133.718 Y118.578 E.01476
G1 X139.082 Y123.943 E.22127
G1 X139.082 Y124.449 E.01476
G1 X133.718 Y119.084 E.22127
G1 X133.718 Y119.591 E.01476
G1 X139.082 Y124.955 E.22127
G1 X139.082 Y125.461 E.01476
G1 X133.718 Y120.097 E.22127
G1 X133.718 Y120.603 E.01476
G1 X139.082 Y125.967 E.22127
G1 X139.082 Y126.474 E.01476
M73 P1 R156
G1 X133.718 Y121.109 E.22127
G1 X133.718 Y121.615 E.01476
G1 X139.082 Y126.98 E.22127
G1 X139.082 Y127.486 E.01476
G1 X133.718 Y122.121 E.22127
G1 X133.718 Y122.628 E.01476
G1 X139.082 Y127.992 E.22127
G1 X139.082 Y128.498 E.01476
G1 X133.718 Y123.134 E.22127
G1 X133.718 Y123.64 E.01476
G1 X139.082 Y129.004 E.22127
G1 X139.082 Y129.511 E.01476
G1 X133.718 Y124.146 E.22127
G1 X133.718 Y124.652 E.01476
G1 X139.082 Y130.017 E.22127
G1 X139.082 Y130.523 E.01476
G1 X133.718 Y125.159 E.22127
G1 X133.718 Y125.665 E.01476
G1 X139.082 Y131.029 E.22127
G1 X139.082 Y131.535 E.01476
G1 X133.718 Y126.171 E.22127
G1 X133.718 Y126.677 E.01476
G1 X139.082 Y132.042 E.22127
G1 X139.082 Y132.548 E.01476
G1 X133.718 Y127.183 E.22127
G1 X133.718 Y127.69 E.01476
G1 X139.082 Y133.054 E.22127
G1 X139.082 Y133.56 E.01476
G1 X133.718 Y128.196 E.22127
G1 X133.718 Y128.702 E.01476
G1 X139.082 Y134.066 E.22127
G1 X139.082 Y134.573 E.01476
G1 X133.718 Y129.208 E.22127
G1 X133.718 Y129.714 E.01476
G1 X139.082 Y135.079 E.22127
G1 X139.082 Y135.585 E.01476
G1 X133.718 Y130.221 E.22127
G1 X133.718 Y130.727 E.01476
G1 X139.082 Y136.091 E.22127
G1 X139.082 Y136.597 E.01476
G1 X133.718 Y131.233 E.22127
G1 X133.718 Y131.739 E.01476
G1 X139.082 Y137.104 E.22127
G1 X139.082 Y137.61 E.01476
G1 X133.718 Y132.245 E.22127
G1 X133.718 Y132.752 E.01476
G1 X139.082 Y138.116 E.22127
G1 X139.082 Y138.622 E.01476
G1 X133.718 Y133.258 E.22127
G1 X133.718 Y133.764 E.01476
G1 X139.082 Y139.128 E.22127
G1 X139.082 Y139.635 E.01476
G1 X133.718 Y134.27 E.22127
G1 X133.718 Y134.776 E.01476
G1 X139.082 Y140.141 E.22127
G1 X139.082 Y140.647 E.01476
G1 X133.718 Y135.283 E.22127
G1 X133.718 Y135.789 E.01476
G1 X139.082 Y141.153 E.22127
G1 X139.082 Y141.659 E.01476
G1 X133.718 Y136.295 E.22127
G1 X133.718 Y136.801 E.01476
